##WAYPOINTS FOR Assemble all BUSH_BEARING onto HPC_FRONT_BOTTOM.
movej(p[-0.287500,-0.500000,0.050000,-0.000436,3.141540,0.000262])
movel(p[-0.287500,-0.500000,0.000000,-0.000436,3.141540,0.000262])
movej(p[-0.287500,-0.500000,0.050000,-0.000436,3.141540,0.000262])
movej(p[-0.250000,-0.550000,-0.050000,-0.000436,3.141540,0.000262])
movej(p[-0.350000,-0.650000,0.050000,0.392372,2.356155,0.392895])
movej(p[-0.450000,-0.650000,0.150000,0.785180,1.570770,0.785529])
movej(p[-0.550000,-0.650000,0.250000,1.177988,0.785385,1.178163])
movej(p[-0.344, -0.8, 0.3117245999999999, -1.5707963267948966, 0.0, 0.0])
movej(p[-0.550000,-0.650000,0.250000,1.177988,0.785385,1.178163])
movej(p[-0.450000,-0.650000,0.150000,0.785180,1.570770,0.785529])
movej(p[-0.350000,-0.650000,0.050000,0.392372,2.356155,0.392895])
movej(p[-0.250000,-0.550000,-0.050000,-0.000436,3.141540,0.000262])
movej(p[-0.287500,-0.475000,0.050000,-0.000436,3.141540,0.000262])
movel(p[-0.287500,-0.475000,0.000000,-0.000436,3.141540,0.000262])
movej(p[-0.287500,-0.475000,0.050000,-0.000436,3.141540,0.000262])
movej(p[-0.250000,-0.450000,-0.050000,-0.000436,3.141540,0.000262])
movej(p[-0.350000,-0.550000,0.050000,0.354824,2.602101,0.354228])
movej(p[-0.450000,-0.650000,0.150000,0.710084,2.062662,0.708193])
movej(p[-0.550000,-0.750000,0.250000,1.065344,1.523222,1.062159])
movej(p[-0.550000,-0.750000,0.350000,1.420605,0.983783,1.416125])
movej(p[-0.550000,-0.750000,0.450000,1.775865,0.444344,1.770091])
movej(p[-0.32480897179818796, -0.7604678290545013, 0.43607460000000003, 2.076294179836085, -0.09509560235291385, 2.0966411014573287])
movej(p[-0.550000,-0.750000,0.450000,1.775865,0.444344,1.770091])
movej(p[-0.550000,-0.750000,0.350000,1.420605,0.983783,1.416125])
movej(p[-0.550000,-0.750000,0.250000,1.065344,1.523222,1.062159])
movej(p[-0.450000,-0.650000,0.150000,0.710084,2.062662,0.708193])
movej(p[-0.350000,-0.550000,0.050000,0.354824,2.602101,0.354228])
movej(p[-0.250000,-0.450000,-0.050000,-0.000436,3.141540,0.000262])
movej(p[-0.287500,-0.450000,0.050000,-0.000436,3.141540,0.000262])
movel(p[-0.287500,-0.450000,0.000000,-0.000436,3.141540,0.000262])
movej(p[-0.287500,-0.450000,0.050000,-0.000436,3.141540,0.000262])
movej(p[-0.250000,-0.450000,-0.050000,-0.000436,3.141540,0.000262])
movej(p[-0.150000,-0.550000,0.050000,0.054743,2.202595,-0.054883])
movej(p[-0.050000,-0.650000,0.150000,0.109922,1.263649,-0.110027])
movej(p[-0.050000,-0.750000,0.250000,0.165102,0.324704,-0.165171])
movej(p[-0.050000,-0.850000,0.350000,0.220281,-0.614242,-0.220316])
movej(p[-0.31488, -0.8, 0.3117245999999999, 0.2745033730027745, -1.553187206671416, -0.2759388487750107])
movej(p[-0.050000,-0.850000,0.350000,0.220281,-0.614242,-0.220316])
movej(p[-0.050000,-0.750000,0.250000,0.165102,0.324704,-0.165171])
movej(p[-0.050000,-0.650000,0.150000,0.109922,1.263649,-0.110027])
movej(p[-0.150000,-0.550000,0.050000,0.054743,2.202595,-0.054883])
movej(p[-0.250000,-0.450000,-0.050000,-0.000436,3.141540,0.000262])
movej(p[-0.287500,-0.425000,0.050000,-0.000436,3.141540,0.000262])
movel(p[-0.287500,-0.425000,0.000000,-0.000436,3.141540,0.000262])
movej(p[-0.287500,-0.425000,0.050000,-0.000436,3.141540,0.000262])
movej(p[-0.250000,-0.450000,-0.050000,-0.000436,3.141540,0.000262])
movej(p[-0.150000,-0.550000,0.050000,-0.011186,2.670576,-0.010558])
movej(p[-0.050000,-0.650000,0.150000,-0.021936,2.199612,-0.021377])
movej(p[0.050000,-0.750000,0.150000,-0.032685,1.728648,-0.032197])
movej(p[0.150000,-0.750000,0.150000,-0.043435,1.257684,-0.043016])
movej(p[0.250000,-0.750000,0.150000,-0.054185,0.786720,-0.053836])
movej(p[0.350000,-0.750000,0.150000,-0.064935,0.315756,-0.064655])
movej(p[0.450000,-0.750000,0.250000,-0.075684,-0.155208,-0.075475])
movej(p[0.450000,-0.750000,0.350000,-0.086434,-0.626172,-0.086294])
movej(p[0.450000,-0.750000,0.450000,-0.097184,-1.097136,-0.097114])
movej(p[-0.291307916704385, -0.7651015864501857, 0.43607460000000003, -0.107950174344417, -1.5681000498621822, -0.10794182308489764])
movej(p[0.450000,-0.750000,0.450000,-0.097184,-1.097136,-0.097114])
movej(p[0.450000,-0.750000,0.350000,-0.086434,-0.626172,-0.086294])
movej(p[0.450000,-0.750000,0.250000,-0.075684,-0.155208,-0.075475])
movej(p[0.350000,-0.750000,0.150000,-0.064935,0.315756,-0.064655])
movej(p[0.250000,-0.750000,0.150000,-0.054185,0.786720,-0.053836])
movej(p[0.150000,-0.750000,0.150000,-0.043435,1.257684,-0.043016])
movej(p[0.050000,-0.750000,0.150000,-0.032685,1.728648,-0.032197])
movej(p[-0.050000,-0.650000,0.150000,-0.021936,2.199612,-0.021377])
movej(p[-0.150000,-0.550000,0.050000,-0.011186,2.670576,-0.010558])
movej(p[-0.250000,-0.450000,-0.050000,-0.000436,3.141540,0.000262])
movej(p[-0.287500,-0.400000,0.050000,-0.000436,3.141540,0.000262])
movel(p[-0.287500,-0.400000,0.000000,-0.000436,3.141540,0.000262])
movej(p[-0.287500,-0.400000,0.050000,-0.000436,3.141540,0.000262])
movej(p[-0.250000,-0.450000,-0.050000,-0.000436,3.141540,0.000262])
movej(p[-0.150000,-0.550000,0.050000,0.013317,2.618339,0.013938])
movej(p[-0.050000,-0.650000,0.150000,0.027071,2.095137,0.027614])
movej(p[0.050000,-0.750000,0.150000,0.040825,1.571935,0.041290])
movej(p[0.150000,-0.750000,0.150000,0.054579,1.048734,0.054966])
movej(p[0.250000,-0.750000,0.150000,0.068332,0.525532,0.068643])
movej(p[0.350000,-0.750000,0.150000,0.082086,0.002330,0.082319])
movej(p[0.450000,-0.750000,0.250000,0.095840,-0.520871,0.095995])
movej(p[0.450000,-0.750000,0.350000,0.109593,-1.044073,0.109671])
movej(p[0.26224494388151903, -0.7522874881627306, 0.3117245999999999, 0.12334688212070948, -1.5672744418305125, 0.12334702787768478])
movej(p[0.450000,-0.750000,0.350000,0.109593,-1.044073,0.109671])
movej(p[0.450000,-0.750000,0.250000,0.095840,-0.520871,0.095995])
movej(p[0.350000,-0.750000,0.150000,0.082086,0.002330,0.082319])
movej(p[0.250000,-0.750000,0.150000,0.068332,0.525532,0.068643])
movej(p[0.150000,-0.750000,0.150000,0.054579,1.048734,0.054966])
movej(p[0.050000,-0.750000,0.150000,0.040825,1.571935,0.041290])
movej(p[-0.050000,-0.650000,0.150000,0.027071,2.095137,0.027614])
movej(p[-0.150000,-0.550000,0.050000,0.013317,2.618339,0.013938])
movej(p[-0.250000,-0.450000,-0.050000,-0.000436,3.141540,0.000262])
movej(p[-0.287500,-0.375000,0.050000,-0.000436,3.141540,0.000262])
movel(p[-0.287500,-0.375000,0.000000,-0.000436,3.141540,0.000262])
movej(p[-0.287500,-0.375000,0.050000,-0.000436,3.141540,0.000262])
movej(p[-0.250000,-0.350000,-0.050000,-0.000436,3.141540,0.000262])
movej(p[-0.150000,-0.450000,0.050000,0.027007,2.619514,0.027628])
movej(p[-0.050000,-0.550000,0.150000,0.054451,2.097487,0.054994])
movej(p[0.050000,-0.650000,0.150000,0.081895,1.575461,0.082360])
movej(p[0.150000,-0.650000,0.150000,0.109338,1.053435,0.109726])
movej(p[0.250000,-0.650000,0.150000,0.136782,0.531408,0.137092])
movej(p[0.350000,-0.650000,0.150000,0.164226,0.009382,0.164458])
movej(p[0.450000,-0.650000,0.250000,0.191669,-0.512645,0.191824])
movej(p[0.450000,-0.650000,0.350000,0.219113,-1.034671,0.219191])
movej(p[0.251072237470024, -0.705749816715642, 0.3117245999999999, 0.24655668258992797, -1.5566976602790237, 0.2465566851338671])
movej(p[0.450000,-0.650000,0.350000,0.219113,-1.034671,0.219191])
movej(p[0.450000,-0.650000,0.250000,0.191669,-0.512645,0.191824])
movej(p[0.350000,-0.650000,0.150000,0.164226,0.009382,0.164458])
movej(p[0.250000,-0.650000,0.150000,0.136782,0.531408,0.137092])
movej(p[0.150000,-0.650000,0.150000,0.109338,1.053435,0.109726])
movej(p[0.050000,-0.650000,0.150000,0.081895,1.575461,0.082360])
movej(p[-0.050000,-0.550000,0.150000,0.054451,2.097487,0.054994])
movej(p[-0.150000,-0.450000,0.050000,0.027007,2.619514,0.027628])
movej(p[-0.250000,-0.350000,-0.050000,-0.000436,3.141540,0.000262])
movej(p[-0.287500,-0.350000,0.050000,-0.000436,3.141540,0.000262])
movel(p[-0.287500,-0.350000,0.000000,-0.000436,3.141540,0.000262])
movej(p[-0.287500,-0.350000,0.050000,-0.000436,3.141540,0.000262])
movej(p[-0.250000,-0.350000,-0.050000,-0.000436,3.141540,0.000262])
movej(p[-0.350000,-0.450000,0.050000,0.073549,2.205426,0.074107])
movej(p[-0.450000,-0.550000,0.150000,0.147534,1.269311,0.147953])
movej(p[-0.550000,-0.650000,0.250000,0.221519,0.333197,0.221798])
movej(p[-0.550000,-0.650000,0.350000,0.295504,-0.602918,0.295644])
movej(p[0.232756989877454, -0.661532897579439, 0.3117245999999999, 0.3694890162909993, -1.539032514977724, 0.36948901633539943])
movej(p[-0.550000,-0.650000,0.350000,0.295504,-0.602918,0.295644])
movej(p[-0.550000,-0.650000,0.250000,0.221519,0.333197,0.221798])
movej(p[-0.450000,-0.550000,0.150000,0.147534,1.269311,0.147953])
movej(p[-0.350000,-0.450000,0.050000,0.073549,2.205426,0.074107])
movej(p[-0.250000,-0.350000,-0.050000,-0.000436,3.141540,0.000262])
movej(p[-0.287500,-0.325000,0.050000,-0.000436,3.141540,0.000262])
movel(p[-0.287500,-0.325000,0.000000,-0.000436,3.141540,0.000262])
movej(p[-0.287500,-0.325000,0.050000,-0.000436,3.141540,0.000262])
movej(p[-0.250000,-0.350000,-0.050000,-0.000436,3.141540,0.000262])
movej(p[-0.150000,-0.450000,0.050000,0.061118,2.559570,0.061729])
movej(p[-0.050000,-0.550000,0.150000,0.122673,1.977599,0.123197])
movej(p[0.050000,-0.550000,0.150000,0.184228,1.395629,0.184664])
movej(p[0.150000,-0.550000,0.150000,0.245782,0.813659,0.246131])
movej(p[0.250000,-0.550000,0.150000,0.307337,0.231688,0.307599])
movej(p[0.350000,-0.450000,0.250000,0.368892,-0.350282,0.369066])
movej(p[0.450000,-0.550000,0.350000,0.430446,-0.932253,0.430533])
movej(p[0.20775018328436098, -0.620725498050796, 0.3117245999999999, 0.4920008566817614, -1.5142229368903577, 0.49200085668253635])
movej(p[0.450000,-0.550000,0.350000,0.430446,-0.932253,0.430533])
movej(p[0.350000,-0.450000,0.250000,0.368892,-0.350282,0.369066])
movej(p[0.250000,-0.550000,0.150000,0.307337,0.231688,0.307599])
movej(p[0.150000,-0.550000,0.150000,0.245782,0.813659,0.246131])
movej(p[0.050000,-0.550000,0.150000,0.184228,1.395629,0.184664])
movej(p[-0.050000,-0.550000,0.150000,0.122673,1.977599,0.123197])
movej(p[-0.150000,-0.450000,0.050000,0.061118,2.559570,0.061729])
movej(p[-0.250000,-0.350000,-0.050000,-0.000436,3.141540,0.000262])
movej(p[-0.287500,-0.300000,0.050000,-0.000436,3.141540,0.000262])
movel(p[-0.287500,-0.300000,0.000000,-0.000436,3.141540,0.000262])
movej(p[-0.287500,-0.300000,0.050000,-0.000436,3.141540,0.000262])
movej(p[-0.250000,-0.350000,-0.050000,-0.000436,3.141540,0.000262])
movej(p[-0.150000,-0.450000,0.050000,0.087332,2.481007,0.087931])
movej(p[-0.050000,-0.450000,0.150000,0.175101,1.820475,0.175599])
movej(p[0.050000,-0.450000,0.150000,0.262869,1.159942,0.263268])
movej(p[0.150000,-0.450000,0.150000,0.350638,0.499409,0.350937])
movej(p[0.250000,-0.350000,0.250000,0.438406,-0.161124,0.438606])
movej(p[0.350000,-0.450000,0.350000,0.526175,-0.821657,0.526274])
movej(p[0.176667568261899, -0.584332431738103, 0.3117245999999999, 0.613943125568907, -1.4821898202742563, 0.6139431255689205])
movej(p[0.350000,-0.450000,0.350000,0.526175,-0.821657,0.526274])
movej(p[0.250000,-0.350000,0.250000,0.438406,-0.161124,0.438606])
movej(p[0.150000,-0.450000,0.150000,0.350638,0.499409,0.350937])
movej(p[0.050000,-0.450000,0.150000,0.262869,1.159942,0.263268])
movej(p[-0.050000,-0.450000,0.150000,0.175101,1.820475,0.175599])
movej(p[-0.150000,-0.450000,0.050000,0.087332,2.481007,0.087931])
movej(p[-0.250000,-0.350000,-0.050000,-0.000436,3.141540,0.000262])
movej(p[-0.262500,-0.500000,0.050000,-0.000436,3.141540,0.000262])
movel(p[-0.262500,-0.500000,0.000000,-0.000436,3.141540,0.000262])
movej(p[-0.262500,-0.500000,0.050000,-0.000436,3.141540,0.000262])
movej(p[-0.250000,-0.550000,-0.050000,-0.000436,3.141540,0.000262])
movej(p[-0.150000,-0.450000,0.050000,0.146683,2.224666,0.147241])
movej(p[-0.050000,-0.350000,0.150000,0.293802,1.307792,0.294221])
movej(p[0.050000,-0.250000,0.250000,0.440921,0.390918,0.441200])
movej(p[0.150000,-0.250000,0.350000,0.588040,-0.525956,0.588179])
movej(p[0.140274501949207, -0.553249816715641, 0.3117245999999999, 0.7351588162818353, -1.4428304160494692, 0.7351588162818355])
movej(p[0.150000,-0.250000,0.350000,0.588040,-0.525956,0.588179])
movej(p[0.050000,-0.250000,0.250000,0.440921,0.390918,0.441200])
movej(p[-0.050000,-0.350000,0.150000,0.293802,1.307792,0.294221])
movej(p[-0.150000,-0.450000,0.050000,0.146683,2.224666,0.147241])
movej(p[-0.250000,-0.550000,-0.050000,-0.000436,3.141540,0.000262])
movej(p[-0.262500,-0.475000,0.050000,-0.000436,3.141540,0.000262])
movel(p[-0.262500,-0.475000,0.000000,-0.000436,3.141540,0.000262])
movej(p[-0.262500,-0.475000,0.050000,-0.000436,3.141540,0.000262])
movej(p[-0.250000,-0.450000,-0.050000,-0.000436,3.141540,0.000262])
movej(p[-0.150000,-0.350000,0.050000,0.170747,2.234029,0.171306])
movej(p[-0.050000,-0.250000,0.150000,0.341930,1.326517,0.342349])
movej(p[0.050000,-0.250000,0.250000,0.513114,0.419006,0.513393])
movej(p[0.050000,-0.250000,0.350000,0.684297,-0.488506,0.684437])
movej(p[0.099467102420564, -0.528243010122548, 0.3117245999999999, 0.8554806590308102, -1.3960175567454827, 0.8554806590308102])
movej(p[0.050000,-0.250000,0.350000,0.684297,-0.488506,0.684437])
movej(p[0.050000,-0.250000,0.250000,0.513114,0.419006,0.513393])
movej(p[-0.050000,-0.250000,0.150000,0.341930,1.326517,0.342349])
movej(p[-0.150000,-0.350000,0.050000,0.170747,2.234029,0.171306])
movej(p[-0.250000,-0.450000,-0.050000,-0.000436,3.141540,0.000262])
movej(p[-0.262500,-0.450000,0.050000,-0.000436,3.141540,0.000262])
movel(p[-0.262500,-0.450000,0.000000,-0.000436,3.141540,0.000262])
movej(p[-0.262500,-0.450000,0.050000,-0.000436,3.141540,0.000262])
movej(p[-0.250000,-0.450000,-0.050000,-0.000436,3.141540,0.000262])
movej(p[-0.150000,-0.350000,0.050000,0.194597,2.244912,0.195155])
movej(p[-0.050000,-0.250000,0.150000,0.389630,1.348285,0.390048])
movej(p[0.050000,-0.250000,0.250000,0.584663,0.451657,0.584942])
movej(p[0.150000,-0.250000,0.350000,0.779696,-0.444971,0.779835])
movej(p[0.0552501832843613, -0.5099277625299781, 0.3117245999999999, 0.9747285250892458, -1.3415987193003756, 0.974728525089246])
movej(p[0.150000,-0.250000,0.350000,0.779696,-0.444971,0.779835])
movej(p[0.050000,-0.250000,0.250000,0.584663,0.451657,0.584942])
movej(p[-0.050000,-0.250000,0.150000,0.389630,1.348285,0.390048])
movej(p[-0.150000,-0.350000,0.050000,0.194597,2.244912,0.195155])
movej(p[-0.250000,-0.450000,-0.050000,-0.000436,3.141540,0.000262])
movej(p[-0.262500,-0.425000,0.050000,-0.000436,3.141540,0.000262])
movel(p[-0.262500,-0.425000,0.000000,-0.000436,3.141540,0.000262])
movej(p[-0.262500,-0.425000,0.050000,-0.000436,3.141540,0.000262])
movej(p[-0.250000,-0.450000,-0.050000,-0.000436,3.141540,0.000262])
movej(p[-0.350000,-0.550000,0.050000,0.136207,2.588923,0.136817])
movej(p[-0.350000,-0.650000,0.150000,0.272849,2.036306,0.273373])
movej(p[-0.350000,-0.750000,0.150000,0.409492,1.483690,0.409929])
movej(p[-0.350000,-0.850000,0.150000,0.546135,0.931073,0.546484])
movej(p[-0.350000,-0.950000,0.150000,0.682778,0.378456,0.683040])
movej(p[-0.350000,-1.050000,0.250000,0.819421,-0.174161,0.819595])
movej(p[-0.350000,-1.050000,0.350000,0.956064,-0.726778,0.956151])
movej(p[0.008712511837272709, -0.49875505611848203, 0.3117245999999999, 1.092706504465373, -1.2793949366416368, 1.092706504465373])
movej(p[-0.350000,-1.050000,0.350000,0.956064,-0.726778,0.956151])
movej(p[-0.350000,-1.050000,0.250000,0.819421,-0.174161,0.819595])
movej(p[-0.350000,-0.950000,0.150000,0.682778,0.378456,0.683040])
movej(p[-0.350000,-0.850000,0.150000,0.546135,0.931073,0.546484])
movej(p[-0.350000,-0.750000,0.150000,0.409492,1.483690,0.409929])
movej(p[-0.350000,-0.650000,0.150000,0.272849,2.036306,0.273373])
movej(p[-0.350000,-0.550000,0.050000,0.136207,2.588923,0.136817])
movej(p[-0.250000,-0.450000,-0.050000,-0.000436,3.141540,0.000262])
movej(p[-0.262500,-0.400000,0.050000,-0.000436,3.141540,0.000262])
movel(p[-0.262500,-0.400000,0.000000,-0.000436,3.141540,0.000262])
movej(p[-0.262500,-0.400000,0.050000,-0.000436,3.141540,0.000262])
movej(p[-0.250000,-0.450000,-0.050000,-0.000436,3.141540,0.000262])
movej(p[-0.150000,-0.350000,0.050000,0.241491,2.271392,0.242049])
movej(p[-0.050000,-0.250000,0.150000,0.483418,1.401244,0.483837])
movej(p[0.050000,-0.250000,0.250000,0.725345,0.531096,0.725624])
movej(p[0.050000,-0.250000,0.350000,0.967272,-0.339052,0.967412])
movej(p[-0.038999999999997835, -0.49499999999999905, 0.3117245999999999, 1.2091995761561454, -1.2091995761561456, 1.2091995761561456])
movej(p[0.050000,-0.250000,0.350000,0.967272,-0.339052,0.967412])
movej(p[0.050000,-0.250000,0.250000,0.725345,0.531096,0.725624])
movej(p[-0.050000,-0.250000,0.150000,0.483418,1.401244,0.483837])
movej(p[-0.150000,-0.350000,0.050000,0.241491,2.271392,0.242049])
movej(p[-0.250000,-0.450000,-0.050000,-0.000436,3.141540,0.000262])
movej(p[-0.262500,-0.375000,0.050000,-0.000436,3.141540,0.000262])
movel(p[-0.262500,-0.375000,0.000000,-0.000436,3.141540,0.000262])
movej(p[-0.262500,-0.375000,0.050000,-0.000436,3.141540,0.000262])
movej(p[-0.250000,-0.350000,-0.050000,-0.000436,3.141540,0.000262])
movej(p[-0.150000,-0.250000,0.050000,0.264445,2.287077,0.265003])
movej(p[-0.050000,-0.250000,0.150000,0.529326,1.432613,0.529745])
movej(p[0.050000,-0.250000,0.250000,0.794207,0.578150,0.794487])
movej(p[0.050000,-0.250000,0.350000,1.059089,-0.276314,1.059228])
movej(p[-0.08671251183726839, -0.49875505611848203, 0.3117245999999999, 1.323969776114675, -1.1307770139169389, 1.323969776114675])
movej(p[0.050000,-0.250000,0.350000,1.059089,-0.276314,1.059228])
movej(p[0.050000,-0.250000,0.250000,0.794207,0.578150,0.794487])
movej(p[-0.050000,-0.250000,0.150000,0.529326,1.432613,0.529745])
movej(p[-0.150000,-0.250000,0.050000,0.264445,2.287077,0.265003])
movej(p[-0.250000,-0.350000,-0.050000,-0.000436,3.141540,0.000262])
movej(p[-0.262500,-0.350000,0.050000,-0.000436,3.141540,0.000262])
movel(p[-0.262500,-0.350000,0.000000,-0.000436,3.141540,0.000262])
movej(p[-0.262500,-0.350000,0.050000,-0.000436,3.141540,0.000262])
movej(p[-0.250000,-0.350000,-0.050000,-0.000436,3.141540,0.000262])
movej(p[-0.150000,-0.450000,0.050000,0.179212,2.618365,0.179823])
movej(p[-0.050000,-0.550000,0.150000,0.358861,2.095190,0.359384])
movej(p[0.050000,-0.650000,0.150000,0.538509,1.572015,0.538946])
movej(p[0.150000,-0.750000,0.150000,0.718158,1.048840,0.718507])
movej(p[0.250000,-0.850000,0.150000,0.897806,0.525664,0.898068])
movej(p[0.350000,-0.950000,0.250000,1.077455,0.002489,1.077629])
movej(p[0.350000,-0.950000,0.350000,1.257103,-0.520686,1.257191])
movej(p[-0.1332501832843571, -0.5099277625299771, 0.3117245999999999, 1.436751751072678, -1.0438612493404769, 1.4367517510726782])
movej(p[0.350000,-0.950000,0.350000,1.257103,-0.520686,1.257191])
movej(p[0.350000,-0.950000,0.250000,1.077455,0.002489,1.077629])
movej(p[0.250000,-0.850000,0.150000,0.897806,0.525664,0.898068])
movej(p[0.150000,-0.750000,0.150000,0.718158,1.048840,0.718507])
movej(p[0.050000,-0.650000,0.150000,0.538509,1.572015,0.538946])
movej(p[-0.050000,-0.550000,0.150000,0.358861,2.095190,0.359384])
movej(p[-0.150000,-0.450000,0.050000,0.179212,2.618365,0.179823])
movej(p[-0.250000,-0.350000,-0.050000,-0.000436,3.141540,0.000262])
movej(p[-0.262500,-0.325000,0.050000,-0.000436,3.141540,0.000262])
movel(p[-0.262500,-0.325000,0.000000,-0.000436,3.141540,0.000262])
movej(p[-0.262500,-0.325000,0.050000,-0.000436,3.141540,0.000262])
movej(p[-0.250000,-0.350000,-0.050000,-0.000436,3.141540,0.000262])
movej(p[-0.150000,-0.250000,0.050000,0.309100,2.323601,0.309659])
movej(p[-0.150000,-0.250000,0.150000,0.618637,1.505662,0.619056])
movej(p[-0.150000,-0.250000,0.250000,0.928174,0.687723,0.928453])
movej(p[-0.150000,-0.250000,0.350000,1.237711,-0.130216,1.237850])
movej(p[-0.17746710242056002, -0.528243010122547, 0.3117245999999999, 1.5472475658987617, -0.9481545278303573, 1.5472475658987617])
movej(p[-0.150000,-0.250000,0.350000,1.237711,-0.130216,1.237850])
movej(p[-0.150000,-0.250000,0.250000,0.928174,0.687723,0.928453])
movej(p[-0.150000,-0.250000,0.150000,0.618637,1.505662,0.619056])
movej(p[-0.150000,-0.250000,0.050000,0.309100,2.323601,0.309659])
movej(p[-0.250000,-0.350000,-0.050000,-0.000436,3.141540,0.000262])
movej(p[-0.262500,-0.300000,0.050000,-0.000436,3.141540,0.000262])
movel(p[-0.262500,-0.300000,0.000000,-0.000436,3.141540,0.000262])
movej(p[-0.262500,-0.300000,0.050000,-0.000436,3.141540,0.000262])
movej(p[-0.250000,-0.350000,-0.050000,-0.000436,3.141540,0.000262])
movej(p[-0.350000,-0.350000,0.050000,0.330675,2.344567,0.331234])
movej(p[-0.350000,-0.350000,0.150000,0.661786,1.547594,0.662205])
movej(p[-0.350000,-0.350000,0.250000,0.992898,0.750620,0.993177])
movej(p[-0.350000,-0.350000,0.350000,1.324009,-0.046353,1.324149])
movej(p[-0.218274501949203, -0.5532498167156401, 0.3117245999999999, 1.655120607949105, -0.8433260717327652, 1.655120607949105])
movej(p[-0.350000,-0.350000,0.350000,1.324009,-0.046353,1.324149])
movej(p[-0.350000,-0.350000,0.250000,0.992898,0.750620,0.993177])
movej(p[-0.350000,-0.350000,0.150000,0.661786,1.547594,0.662205])
movej(p[-0.350000,-0.350000,0.050000,0.330675,2.344567,0.331234])
movej(p[-0.250000,-0.350000,-0.050000,-0.000436,3.141540,0.000262])
movej(p[-0.237500,-0.500000,0.050000,-0.000436,3.141540,0.000262])
movel(p[-0.237500,-0.500000,0.000000,-0.000436,3.141540,0.000262])
movej(p[-0.237500,-0.500000,0.050000,-0.000436,3.141540,0.000262])
movej(p[-0.250000,-0.550000,-0.050000,-0.000436,3.141540,0.000262])
movej(p[-0.150000,-0.550000,0.050000,0.219617,2.657721,0.220228])
movej(p[-0.050000,-0.550000,0.150000,0.439670,2.173902,0.440193])
movej(p[0.050000,-0.550000,0.150000,0.659723,1.690084,0.660159])
movej(p[0.150000,-0.550000,0.150000,0.879776,1.206265,0.880125])
movej(p[0.250000,-0.550000,0.150000,1.099829,0.722446,1.100091])
movej(p[0.350000,-0.450000,0.250000,1.319882,0.238627,1.320057])
movej(p[0.450000,-0.550000,0.350000,1.539935,-0.245192,1.540023])
movej(p[-0.254667568261896, -0.584332431738101, 0.3117245999999999, 1.759988403788184, -0.7290110664684463, 1.759988403788184])
movej(p[0.450000,-0.550000,0.350000,1.539935,-0.245192,1.540023])
movej(p[0.350000,-0.450000,0.250000,1.319882,0.238627,1.320057])
movej(p[0.250000,-0.550000,0.150000,1.099829,0.722446,1.100091])
movej(p[0.150000,-0.550000,0.150000,0.879776,1.206265,0.880125])
movej(p[0.050000,-0.550000,0.150000,0.659723,1.690084,0.660159])
movej(p[-0.050000,-0.550000,0.150000,0.439670,2.173902,0.440193])
movej(p[-0.150000,-0.550000,0.050000,0.219617,2.657721,0.220228])
movej(p[-0.250000,-0.550000,-0.050000,-0.000436,3.141540,0.000262])
movej(p[-0.237500,-0.475000,0.050000,-0.000436,3.141540,0.000262])
movel(p[-0.237500,-0.475000,0.000000,-0.000436,3.141540,0.000262])
movej(p[-0.237500,-0.475000,0.050000,-0.000436,3.141540,0.000262])
movej(p[-0.250000,-0.450000,-0.050000,-0.000436,3.141540,0.000262])
movej(p[-0.350000,-0.450000,0.050000,0.371934,2.392270,0.372492])
movej(p[-0.450000,-0.450000,0.150000,0.744304,1.643000,0.744723])
movej(p[-0.450000,-0.450000,0.250000,1.116674,0.893730,1.116953])
movej(p[-0.450000,-0.450000,0.350000,1.489044,0.144460,1.489184])
movej(p[-0.285750183284358, -0.620725498050794, 0.3117245999999999, 1.8614141320555968, -0.6048101143511483, 1.8614141320555968])
movej(p[-0.450000,-0.450000,0.350000,1.489044,0.144460,1.489184])
movej(p[-0.450000,-0.450000,0.250000,1.116674,0.893730,1.116953])
movej(p[-0.450000,-0.450000,0.150000,0.744304,1.643000,0.744723])
movej(p[-0.350000,-0.450000,0.050000,0.371934,2.392270,0.372492])
movej(p[-0.250000,-0.450000,-0.050000,-0.000436,3.141540,0.000262])
movej(p[-0.237500,-0.450000,0.050000,-0.000436,3.141540,0.000262])
movel(p[-0.237500,-0.450000,0.000000,-0.000436,3.141540,0.000262])
movej(p[-0.237500,-0.450000,0.050000,-0.000436,3.141540,0.000262])
movej(p[-0.250000,-0.450000,-0.050000,-0.000436,3.141540,0.000262])
movej(p[-0.350000,-0.550000,0.050000,0.391430,2.419174,0.391989])
movej(p[-0.450000,-0.550000,0.150000,0.783297,1.696808,0.783716])
movej(p[-0.550000,-0.550000,0.250000,1.175163,0.974442,1.175443])
movej(p[-0.550000,-0.550000,0.350000,1.567030,0.252076,1.567170])
movej(p[-0.310756989877451, -0.661532897579437, 0.3117245999999999, 1.9588965822523492, -0.4702894606334295, 1.9588965822523494])
movej(p[-0.550000,-0.550000,0.350000,1.567030,0.252076,1.567170])
movej(p[-0.550000,-0.550000,0.250000,1.175163,0.974442,1.175443])
movej(p[-0.450000,-0.550000,0.150000,0.783297,1.696808,0.783716])
movej(p[-0.350000,-0.550000,0.050000,0.391430,2.419174,0.391989])
movej(p[-0.250000,-0.450000,-0.050000,-0.000436,3.141540,0.000262])
movej(p[-0.237500,-0.425000,0.050000,-0.000436,3.141540,0.000262])
movel(p[-0.237500,-0.425000,0.000000,-0.000436,3.141540,0.000262])
movej(p[-0.237500,-0.425000,0.050000,-0.000436,3.141540,0.000262])
movej(p[-0.250000,-0.450000,-0.050000,-0.000436,3.141540,0.000262])
movej(p[-0.350000,-0.550000,0.050000,0.410023,2.448236,0.410581])
movej(p[-0.450000,-0.650000,0.150000,0.820482,1.754931,0.820900])
movej(p[-0.550000,-0.650000,0.250000,1.230940,1.061627,1.231220])
movej(p[-0.550000,-0.650000,0.350000,1.641399,0.368322,1.641539])
movej(p[-0.32907223747002096, -0.7057498167156394, 0.3117245999999999, 2.0518582753399595, -0.32498242456499266, 2.0518582753399595])
movej(p[-0.550000,-0.650000,0.350000,1.641399,0.368322,1.641539])
movej(p[-0.550000,-0.650000,0.250000,1.230940,1.061627,1.231220])
movej(p[-0.450000,-0.650000,0.150000,0.820482,1.754931,0.820900])
movej(p[-0.350000,-0.550000,0.050000,0.410023,2.448236,0.410581])
movej(p[-0.250000,-0.450000,-0.050000,-0.000436,3.141540,0.000262])
movej(p[-0.237500,-0.400000,0.050000,-0.000436,3.141540,0.000262])
movel(p[-0.237500,-0.400000,0.000000,-0.000436,3.141540,0.000262])
movej(p[-0.237500,-0.400000,0.050000,-0.000436,3.141540,0.000262])
movej(p[-0.250000,-0.450000,-0.050000,-0.000436,3.141540,0.000262])
movej(p[-0.350000,-0.550000,0.050000,0.427577,2.479554,0.428136])
movej(p[-0.450000,-0.650000,0.150000,0.855591,1.817567,0.856010])
movej(p[-0.550000,-0.750000,0.250000,1.283604,1.155581,1.283884])
movej(p[-0.550000,-0.750000,0.350000,1.711618,0.493594,1.711758])
movej(p[-0.340244943881517, -0.7522874881627281, 0.3117245999999999, 2.1396314332013566, -0.16839264576855728, 2.1396314332013566])
movej(p[-0.550000,-0.750000,0.350000,1.711618,0.493594,1.711758])
movej(p[-0.550000,-0.750000,0.250000,1.283604,1.155581,1.283884])
movej(p[-0.450000,-0.650000,0.150000,0.855591,1.817567,0.856010])
movej(p[-0.350000,-0.550000,0.050000,0.427577,2.479554,0.428136])
movej(p[-0.250000,-0.450000,-0.050000,-0.000436,3.141540,0.000262])
movej(p[-0.237500,-0.375000,0.050000,-0.000436,3.141540,0.000262])
movel(p[-0.237500,-0.375000,0.000000,-0.000436,3.141540,0.000262])
movej(p[-0.237500,-0.375000,0.050000,-0.000436,3.141540,0.000262])
movej(p[-0.250000,-0.350000,-0.050000,-0.000436,3.141540,0.000262])
movej(p[-0.150000,-0.450000,0.050000,0.343164,2.707157,0.353472])
movej(p[-0.050000,-0.550000,0.150000,0.686765,2.272773,0.706682])
movej(p[-0.050000,-0.650000,0.150000,1.030366,1.838390,1.059891])
movej(p[-0.050000,-0.750000,0.250000,1.373966,1.404007,1.413101])
movej(p[-0.050000,-0.750000,0.350000,1.717567,0.969623,1.766311])
movej(p[0.23348345940338797, -0.7568428597847021, 0.3117245999999999, 2.061167553951968, 0.535239740141798, 2.119521103468712])
movej(p[-0.050000,-0.750000,0.350000,1.717567,0.969623,1.766311])
movej(p[-0.050000,-0.750000,0.250000,1.373966,1.404007,1.413101])
movej(p[-0.050000,-0.650000,0.150000,1.030366,1.838390,1.059891])
movej(p[-0.050000,-0.550000,0.150000,0.686765,2.272773,0.706682])
movej(p[-0.150000,-0.450000,0.050000,0.343164,2.707157,0.353472])
movej(p[-0.250000,-0.350000,-0.050000,-0.000436,3.141540,0.000262])
movej(p[-0.237500,-0.350000,0.050000,-0.000436,3.141540,0.000262])
movel(p[-0.237500,-0.350000,0.000000,-0.000436,3.141540,0.000262])
movej(p[-0.237500,-0.350000,0.050000,-0.000436,3.141540,0.000262])
movej(p[-0.250000,-0.350000,-0.050000,-0.000436,3.141540,0.000262])
movej(p[-0.150000,-0.450000,0.050000,0.346709,2.737843,0.367353])
movej(p[-0.050000,-0.550000,0.150000,0.693855,2.334145,0.734444])
movej(p[-0.050000,-0.650000,0.150000,1.041000,1.930448,1.101535])
movej(p[-0.050000,-0.750000,0.250000,1.388145,1.526750,1.468626])
movej(p[-0.050000,-0.750000,0.350000,1.735291,1.123053,1.835717])
movej(p[0.223377471715509, -0.7147483915918403, 0.3117245999999999, 2.0824362304992636, 0.7193555714518765, 2.2028076433623704])
movej(p[-0.050000,-0.750000,0.350000,1.735291,1.123053,1.835717])
movej(p[-0.050000,-0.750000,0.250000,1.388145,1.526750,1.468626])
movej(p[-0.050000,-0.650000,0.150000,1.041000,1.930448,1.101535])
movej(p[-0.050000,-0.550000,0.150000,0.693855,2.334145,0.734444])
movej(p[-0.150000,-0.450000,0.050000,0.346709,2.737843,0.367353])
movej(p[-0.250000,-0.350000,-0.050000,-0.000436,3.141540,0.000262])
movej(p[-0.237500,-0.325000,0.050000,-0.000436,3.141540,0.000262])
movel(p[-0.237500,-0.325000,0.000000,-0.000436,3.141540,0.000262])
movej(p[-0.237500,-0.325000,0.050000,-0.000436,3.141540,0.000262])
movej(p[-0.250000,-0.350000,-0.050000,-0.000436,3.141540,0.000262])
movej(p[-0.150000,-0.450000,0.050000,-0.330869,2.473852,-0.359684])
movej(p[-0.050000,-0.550000,0.150000,-0.661302,1.806163,-0.719630])
movej(p[-0.050000,-0.650000,0.150000,-0.991735,1.138474,-1.079576])
movej(p[-0.050000,-0.750000,0.250000,-1.322169,0.470785,-1.439522])
movej(p[-0.050000,-0.750000,0.350000,-1.652602,-0.196903,-1.799467])
movej(p[0.206810879893089, -0.674753100931854, 0.3117245999999999, -1.9830346630537357, -0.8645919417006307, -2.159413350156015])
movej(p[-0.050000,-0.750000,0.350000,-1.652602,-0.196903,-1.799467])
movej(p[-0.050000,-0.750000,0.250000,-1.322169,0.470785,-1.439522])
movej(p[-0.050000,-0.650000,0.150000,-0.991735,1.138474,-1.079576])
movej(p[-0.050000,-0.550000,0.150000,-0.661302,1.806163,-0.719630])
movej(p[-0.150000,-0.450000,0.050000,-0.330869,2.473852,-0.359684])
movej(p[-0.250000,-0.350000,-0.050000,-0.000436,3.141540,0.000262])
movej(p[-0.237500,-0.300000,0.050000,-0.000436,3.141540,0.000262])
movel(p[-0.237500,-0.300000,0.000000,-0.000436,3.141540,0.000262])
movej(p[-0.237500,-0.300000,0.050000,-0.000436,3.141540,0.000262])
movej(p[-0.250000,-0.350000,-0.050000,-0.000436,3.141540,0.000262])
movej(p[-0.150000,-0.450000,0.050000,-0.308209,2.453873,-0.345276])
movej(p[-0.050000,-0.550000,0.150000,-0.615982,1.766206,-0.690814])
movej(p[-0.050000,-0.650000,0.150000,-0.923755,1.078539,-1.036353])
movej(p[-0.050000,-0.750000,0.250000,-1.231528,0.390872,-1.381891])
movej(p[-0.050000,-0.750000,0.350000,-1.539301,-0.296795,-1.727429])
movej(p[0.18419160840816298, -0.637841804597553, 0.3117245999999999, -1.8470742661152946, -0.984462217023153, -2.07296684376527])
movej(p[-0.050000,-0.750000,0.350000,-1.539301,-0.296795,-1.727429])
movej(p[-0.050000,-0.750000,0.250000,-1.231528,0.390872,-1.381891])
movej(p[-0.050000,-0.650000,0.150000,-0.923755,1.078539,-1.036353])
movej(p[-0.050000,-0.550000,0.150000,-0.615982,1.766206,-0.690814])
movej(p[-0.150000,-0.450000,0.050000,-0.308209,2.453873,-0.345276])
movej(p[-0.250000,-0.350000,-0.050000,-0.000436,3.141540,0.000262])
movej(p[-0.212500,-0.500000,0.050000,-0.000436,3.141540,0.000262])
movel(p[-0.212500,-0.500000,0.000000,-0.000436,3.141540,0.000262])
movej(p[-0.212500,-0.500000,0.050000,-0.000436,3.141540,0.000262])
movej(p[-0.250000,-0.550000,-0.050000,-0.000436,3.141540,0.000262])
movej(p[-0.150000,-0.650000,0.050000,-0.342349,2.294876,-0.396023])
movej(p[-0.050000,-0.750000,0.150000,-0.684263,1.448212,-0.792307])
movej(p[-0.050000,-0.750000,0.250000,-1.026176,0.601547,-1.188591])
movej(p[-0.050000,-0.750000,0.350000,-1.368089,-0.245117,-1.584876])
movej(p[0.15607661879374699, -0.604923381206256, 0.3117245999999999, -1.710001942643063, -1.091781590464124, -1.9811601356768966])
movej(p[-0.050000,-0.750000,0.350000,-1.368089,-0.245117,-1.584876])
movej(p[-0.050000,-0.750000,0.250000,-1.026176,0.601547,-1.188591])
movej(p[-0.050000,-0.750000,0.150000,-0.684263,1.448212,-0.792307])
movej(p[-0.150000,-0.650000,0.050000,-0.342349,2.294876,-0.396023])
movej(p[-0.250000,-0.550000,-0.050000,-0.000436,3.141540,0.000262])
movej(p[-0.212500,-0.475000,0.050000,-0.000436,3.141540,0.000262])
movel(p[-0.212500,-0.475000,0.000000,-0.000436,3.141540,0.000262])
movej(p[-0.212500,-0.475000,0.050000,-0.000436,3.141540,0.000262])
movej(p[-0.250000,-0.450000,-0.050000,-0.000436,3.141540,0.000262])
movej(p[-0.150000,-0.550000,0.050000,-0.314808,2.275780,-0.376727])
movej(p[-0.050000,-0.650000,0.150000,-0.629179,1.410020,-0.753717])
movej(p[-0.050000,-0.750000,0.250000,-0.943551,0.544260,-1.130706])
movej(p[-0.050000,-0.750000,0.350000,-1.257922,-0.321500,-1.507695])
movej(p[0.12315819540244999, -0.57680839159184, 0.3117245999999999, -1.5722939793731199, -1.1872597262686595, -1.8846845086320618])
movej(p[-0.050000,-0.750000,0.350000,-1.257922,-0.321500,-1.507695])
movej(p[-0.050000,-0.750000,0.250000,-0.943551,0.544260,-1.130706])
movej(p[-0.050000,-0.650000,0.150000,-0.629179,1.410020,-0.753717])
movej(p[-0.150000,-0.550000,0.050000,-0.314808,2.275780,-0.376727])
movej(p[-0.250000,-0.450000,-0.050000,-0.000436,3.141540,0.000262])
movej(p[-0.212500,-0.450000,0.050000,-0.000436,3.141540,0.000262])
movel(p[-0.212500,-0.450000,0.000000,-0.000436,3.141540,0.000262])
movej(p[-0.212500,-0.450000,0.050000,-0.000436,3.141540,0.000262])
movej(p[-0.250000,-0.450000,-0.050000,-0.000436,3.141540,0.000262])
movej(p[-0.150000,-0.550000,0.050000,-0.287219,2.258923,-0.356618])
movej(p[-0.050000,-0.650000,0.150000,-0.574001,1.376305,-0.713498])
movej(p[-0.050000,-0.750000,0.250000,-0.860783,0.493688,-1.070378])
movej(p[-0.050000,-0.750000,0.350000,-1.147566,-0.388930,-1.427257])
movej(p[0.086246899068148, -0.554189120106913, 0.3117245999999999, -1.4343482746599916, -1.2715471578956121, -1.7841373035116153])
movej(p[-0.050000,-0.750000,0.350000,-1.147566,-0.388930,-1.427257])
movej(p[-0.050000,-0.750000,0.250000,-0.860783,0.493688,-1.070378])
movej(p[-0.050000,-0.650000,0.150000,-0.574001,1.376305,-0.713498])
movej(p[-0.150000,-0.550000,0.050000,-0.287219,2.258923,-0.356618])
movej(p[-0.250000,-0.450000,-0.050000,-0.000436,3.141540,0.000262])
movej(p[-0.212500,-0.425000,0.050000,-0.000436,3.141540,0.000262])
movel(p[-0.212500,-0.425000,0.000000,-0.000436,3.141540,0.000262])
movej(p[-0.212500,-0.425000,0.050000,-0.000436,3.141540,0.000262])
movej(p[-0.250000,-0.450000,-0.050000,-0.000436,3.141540,0.000262])
movej(p[-0.150000,-0.550000,0.050000,-0.259649,2.244185,-0.335798])
movej(p[-0.050000,-0.650000,0.150000,-0.518862,1.346829,-0.671858])
movej(p[-0.050000,-0.750000,0.250000,-0.778074,0.449474,-1.007917])
movej(p[-0.050000,-0.750000,0.350000,-1.037287,-0.447881,-1.343977])
movej(p[0.046251608408162705, -0.5376225282844931, 0.3117245999999999, -1.296499334239873, -1.3452367479534821, -1.6800365025767907])
movej(p[-0.050000,-0.750000,0.350000,-1.037287,-0.447881,-1.343977])
movej(p[-0.050000,-0.750000,0.250000,-0.778074,0.449474,-1.007917])
movej(p[-0.050000,-0.650000,0.150000,-0.518862,1.346829,-0.671858])
movej(p[-0.150000,-0.550000,0.050000,-0.259649,2.244185,-0.335798])
movej(p[-0.250000,-0.450000,-0.050000,-0.000436,3.141540,0.000262])
movej(p[-0.212500,-0.400000,0.050000,-0.000436,3.141540,0.000262])
movel(p[-0.212500,-0.400000,0.000000,-0.000436,3.141540,0.000262])
movej(p[-0.212500,-0.400000,0.050000,-0.000436,3.141540,0.000262])
movej(p[-0.250000,-0.450000,-0.050000,-0.000436,3.141540,0.000262])
movej(p[-0.150000,-0.550000,0.050000,-0.232155,2.231459,-0.314357])
movej(p[-0.050000,-0.650000,0.150000,-0.463874,1.321378,-0.628976])
movej(p[-0.050000,-0.750000,0.250000,-0.695593,0.411296,-0.943595])
movej(p[-0.050000,-0.750000,0.350000,-0.927312,-0.498785,-1.258214])
movej(p[0.00415714021530101, -0.5275165405966131, 0.3117245999999999, -1.1590304905404936, -1.4088662518171335, -1.5728330851307784])
movej(p[-0.050000,-0.750000,0.350000,-0.927312,-0.498785,-1.258214])
movej(p[-0.050000,-0.750000,0.250000,-0.695593,0.411296,-0.943595])
movej(p[-0.050000,-0.650000,0.150000,-0.463874,1.321378,-0.628976])
movej(p[-0.150000,-0.550000,0.050000,-0.232155,2.231459,-0.314357])
movej(p[-0.250000,-0.450000,-0.050000,-0.000436,3.141540,0.000262])
movej(p[-0.212500,-0.375000,0.050000,-0.000436,3.141540,0.000262])
movel(p[-0.212500,-0.375000,0.000000,-0.000436,3.141540,0.000262])
movej(p[-0.212500,-0.375000,0.050000,-0.000436,3.141540,0.000262])
movej(p[-0.250000,-0.350000,-0.050000,-0.000436,3.141540,0.000262])
movej(p[-0.150000,-0.450000,0.050000,-0.170728,2.374130,-0.243602])
movej(p[-0.050000,-0.550000,0.150000,-0.341019,1.606720,-0.487466])
movej(p[-0.050000,-0.650000,0.150000,-0.511310,0.839309,-0.731330])
movej(p[-0.050000,-0.750000,0.250000,-0.681601,0.071899,-0.975194])
movej(p[-0.050000,-0.750000,0.350000,-0.851893,-0.695511,-1.219058])
movej(p[-0.038999999999997946, -0.524119999999999, 0.3117245999999999, -1.0221838715529383, -1.4629214737482734, -1.4629214737482739])
movej(p[-0.050000,-0.750000,0.350000,-0.851893,-0.695511,-1.219058])
movej(p[-0.050000,-0.750000,0.250000,-0.681601,0.071899,-0.975194])
movej(p[-0.050000,-0.650000,0.150000,-0.511310,0.839309,-0.731330])
movej(p[-0.050000,-0.550000,0.150000,-0.341019,1.606720,-0.487466])
movej(p[-0.150000,-0.450000,0.050000,-0.170728,2.374130,-0.243602])
movej(p[-0.250000,-0.350000,-0.050000,-0.000436,3.141540,0.000262])
movej(p[-0.212500,-0.350000,0.050000,-0.000436,3.141540,0.000262])
movel(p[-0.212500,-0.350000,0.000000,-0.000436,3.141540,0.000262])
movej(p[-0.212500,-0.350000,0.050000,-0.000436,3.141540,0.000262])
movej(p[-0.250000,-0.350000,-0.050000,-0.000436,3.141540,0.000262])
movej(p[-0.150000,-0.450000,0.050000,-0.148058,2.366644,-0.224890])
movej(p[-0.050000,-0.550000,0.150000,-0.295680,1.591747,-0.450042])
movej(p[-0.050000,-0.650000,0.150000,-0.443302,0.816850,-0.675193])
movej(p[-0.050000,-0.750000,0.250000,-0.590924,0.041954,-0.900345])
movej(p[-0.050000,-0.750000,0.350000,-0.738547,-0.732943,-1.125497])
movej(p[-0.08215714021529699, -0.5275165405966131, 0.3117245999999999, -0.8861685545175313, -1.5078396749324048, -1.350648362656079])
movej(p[-0.050000,-0.750000,0.350000,-0.738547,-0.732943,-1.125497])
movej(p[-0.050000,-0.750000,0.250000,-0.590924,0.041954,-0.900345])
movej(p[-0.050000,-0.650000,0.150000,-0.443302,0.816850,-0.675193])
movej(p[-0.050000,-0.550000,0.150000,-0.295680,1.591747,-0.450042])
movej(p[-0.150000,-0.450000,0.050000,-0.148058,2.366644,-0.224890])
movej(p[-0.250000,-0.350000,-0.050000,-0.000436,3.141540,0.000262])
movej(p[-0.212500,-0.325000,0.050000,-0.000436,3.141540,0.000262])
movel(p[-0.212500,-0.325000,0.000000,-0.000436,3.141540,0.000262])
movej(p[-0.212500,-0.325000,0.050000,-0.000436,3.141540,0.000262])
movej(p[-0.250000,-0.350000,-0.050000,-0.000436,3.141540,0.000262])
movej(p[-0.150000,-0.450000,0.050000,-0.125558,2.360615,-0.205835])
movej(p[-0.050000,-0.550000,0.150000,-0.250680,1.579689,-0.411932])
movej(p[-0.050000,-0.650000,0.150000,-0.375802,0.798764,-0.618029])
movej(p[-0.050000,-0.750000,0.250000,-0.500924,0.017838,-0.824126])
movej(p[-0.050000,-0.750000,0.350000,-0.626045,-0.763087,-1.030223])
movej(p[-0.12425160840815869, -0.537622528284492, 0.3117245999999999, -0.7511672608180531, -1.544013011471358, -1.2363201865934865])
movej(p[-0.050000,-0.750000,0.350000,-0.626045,-0.763087,-1.030223])
movej(p[-0.050000,-0.750000,0.250000,-0.500924,0.017838,-0.824126])
movej(p[-0.050000,-0.650000,0.150000,-0.375802,0.798764,-0.618029])
movej(p[-0.050000,-0.550000,0.150000,-0.250680,1.579689,-0.411932])
movej(p[-0.150000,-0.450000,0.050000,-0.125558,2.360615,-0.205835])
movej(p[-0.250000,-0.350000,-0.050000,-0.000436,3.141540,0.000262])
movej(p[-0.212500,-0.300000,0.050000,-0.000436,3.141540,0.000262])
movel(p[-0.212500,-0.300000,0.000000,-0.000436,3.141540,0.000262])
movej(p[-0.212500,-0.300000,0.050000,-0.000436,3.141540,0.000262])
movej(p[-0.250000,-0.350000,-0.050000,-0.000436,3.141540,0.000262])
movej(p[-0.150000,-0.450000,0.050000,-0.103254,2.355985,-0.186483])
movej(p[-0.050000,-0.550000,0.150000,-0.206072,1.570430,-0.373229])
movej(p[-0.050000,-0.650000,0.150000,-0.308889,0.784874,-0.559974])
movej(p[-0.050000,-0.750000,0.250000,-0.411707,-0.000681,-0.746719])
movej(p[-0.050000,-0.750000,0.350000,-0.514524,-0.786237,-0.933464])
movej(p[-0.16424689906814402, -0.554189120106912, 0.3117245999999999, -0.6173418820669496, -1.5717918620599343, -1.120209454211863])
movej(p[-0.050000,-0.750000,0.350000,-0.514524,-0.786237,-0.933464])
movej(p[-0.050000,-0.750000,0.250000,-0.411707,-0.000681,-0.746719])
movej(p[-0.050000,-0.650000,0.150000,-0.308889,0.784874,-0.559974])
movej(p[-0.050000,-0.550000,0.150000,-0.206072,1.570430,-0.373229])
movej(p[-0.150000,-0.450000,0.050000,-0.103254,2.355985,-0.186483])
movej(p[-0.250000,-0.350000,-0.050000,-0.000436,3.141540,0.000262])
movej(p[-0.187500,-0.500000,0.050000,-0.000436,3.141540,0.000262])
movel(p[-0.187500,-0.500000,0.000000,-0.000436,3.141540,0.000262])
movej(p[-0.187500,-0.500000,0.050000,-0.000436,3.141540,0.000262])
movej(p[-0.150000,-0.550000,-0.050000,-0.000436,3.141540,0.000262])
movej(p[-0.050000,-0.650000,0.050000,-0.097317,2.194935,-0.200303])
movej(p[-0.050000,-0.750000,0.150000,-0.194197,1.248329,-0.400867])
movej(p[-0.050000,-0.750000,0.250000,-0.291077,0.301723,-0.601431])
movej(p[-0.050000,-0.750000,0.350000,-0.387958,-0.644882,-0.801996])
movej(p[-0.201158195402446, -0.576808391591838, 0.3117245999999999, -0.4848380725762171, -1.5914879607338317, -1.0025601377665958])
movej(p[-0.050000,-0.750000,0.350000,-0.387958,-0.644882,-0.801996])
movej(p[-0.050000,-0.750000,0.250000,-0.291077,0.301723,-0.601431])
movej(p[-0.050000,-0.750000,0.150000,-0.194197,1.248329,-0.400867])
movej(p[-0.050000,-0.650000,0.050000,-0.097317,2.194935,-0.200303])
movej(p[-0.150000,-0.550000,-0.050000,-0.000436,3.141540,0.000262])
movej(p[-0.187500,-0.475000,0.050000,-0.000436,3.141540,0.000262])
movel(p[-0.187500,-0.475000,0.000000,-0.000436,3.141540,0.000262])
movej(p[-0.187500,-0.475000,0.050000,-0.000436,3.141540,0.000262])
movej(p[-0.150000,-0.450000,-0.050000,-0.000436,3.141540,0.000262])
movej(p[-0.050000,-0.550000,0.050000,-0.071107,2.192557,-0.176509])
movej(p[-0.050000,-0.650000,0.150000,-0.141777,1.243573,-0.353280])
movej(p[-0.050000,-0.750000,0.250000,-0.212448,0.294590,-0.530051])
movej(p[-0.050000,-0.750000,0.350000,-0.283119,-0.654394,-0.706821])
movej(p[-0.234076618793743, -0.604923381206254, 0.3117245999999999, -0.35378909885623566, -1.6033772875230698, -0.8835922818969395])
movej(p[-0.050000,-0.750000,0.350000,-0.283119,-0.654394,-0.706821])
movej(p[-0.050000,-0.750000,0.250000,-0.212448,0.294590,-0.530051])
movej(p[-0.050000,-0.650000,0.150000,-0.141777,1.243573,-0.353280])
movej(p[-0.050000,-0.550000,0.050000,-0.071107,2.192557,-0.176509])
movej(p[-0.150000,-0.450000,-0.050000,-0.000436,3.141540,0.000262])
movej(p[-0.187500,-0.450000,0.050000,-0.000436,3.141540,0.000262])
movel(p[-0.187500,-0.450000,0.000000,-0.000436,3.141540,0.000262])
movej(p[-0.187500,-0.450000,0.050000,-0.000436,3.141540,0.000262])
movej(p[-0.150000,-0.450000,-0.050000,-0.000436,3.141540,0.000262])
movej(p[-0.050000,-0.550000,0.050000,-0.045213,2.191692,-0.152492])
movej(p[-0.050000,-0.650000,0.150000,-0.089989,1.241843,-0.305245])
movej(p[-0.050000,-0.750000,0.250000,-0.134766,0.291995,-0.457999])
movej(p[-0.050000,-0.750000,0.350000,-0.179543,-0.657854,-0.610752])
movej(p[-0.26219160840815897, -0.637841804597551, 0.3117245999999999, -0.22431910093965157, -1.6077026946387127, -0.7635059691564261])
movej(p[-0.050000,-0.750000,0.350000,-0.179543,-0.657854,-0.610752])
movej(p[-0.050000,-0.750000,0.250000,-0.134766,0.291995,-0.457999])
movej(p[-0.050000,-0.650000,0.150000,-0.089989,1.241843,-0.305245])
movej(p[-0.050000,-0.550000,0.050000,-0.045213,2.191692,-0.152492])
movej(p[-0.150000,-0.450000,-0.050000,-0.000436,3.141540,0.000262])
movej(p[-0.187500,-0.425000,0.050000,-0.000436,3.141540,0.000262])
movel(p[-0.187500,-0.425000,0.000000,-0.000436,3.141540,0.000262])
movej(p[-0.187500,-0.425000,0.050000,-0.000436,3.141540,0.000262])
movej(p[-0.150000,-0.450000,-0.050000,-0.000436,3.141540,0.000262])
movej(p[-0.050000,-0.550000,0.050000,-0.019658,2.192297,-0.128288])
movej(p[-0.050000,-0.650000,0.150000,-0.038880,1.243054,-0.256837])
movej(p[-0.050000,-0.750000,0.250000,-0.058102,0.293810,-0.385386])
movej(p[-0.050000,-0.750000,0.350000,-0.077324,-0.655433,-0.513935])
movej(p[-0.284810879893086, -0.674753100931852, 0.3117245999999999, -0.09654589173593915, -1.6046762618856916, -0.6424847586333752])
movej(p[-0.050000,-0.750000,0.350000,-0.077324,-0.655433,-0.513935])
movej(p[-0.050000,-0.750000,0.250000,-0.058102,0.293810,-0.385386])
movej(p[-0.050000,-0.650000,0.150000,-0.038880,1.243054,-0.256837])
movej(p[-0.050000,-0.550000,0.050000,-0.019658,2.192297,-0.128288])
movej(p[-0.150000,-0.450000,-0.050000,-0.000436,3.141540,0.000262])
movej(p[-0.187500,-0.400000,0.050000,-0.000436,3.141540,0.000262])
movel(p[-0.187500,-0.400000,0.000000,-0.000436,3.141540,0.000262])
movej(p[-0.187500,-0.400000,0.050000,-0.000436,3.141540,0.000262])
movej(p[-0.150000,-0.450000,-0.050000,-0.000436,3.141540,0.000262])
movej(p[-0.050000,-0.550000,0.050000,0.005534,2.194336,-0.103930])
movej(p[-0.050000,-0.650000,0.150000,0.011505,1.247132,-0.208122])
movej(p[-0.050000,-0.750000,0.250000,0.017475,0.299927,-0.312314])
movej(p[-0.050000,-0.750000,0.350000,0.023446,-0.647277,-0.416507])
movej(p[-0.301377471715506, -0.7147483915918381, 0.3117245999999999, 0.029416602001857695, -1.594481385091, -0.5206986962287597])
movej(p[-0.050000,-0.750000,0.350000,0.023446,-0.647277,-0.416507])
movej(p[-0.050000,-0.750000,0.250000,0.017475,0.299927,-0.312314])
movej(p[-0.050000,-0.650000,0.150000,0.011505,1.247132,-0.208122])
movej(p[-0.050000,-0.550000,0.050000,0.005534,2.194336,-0.103930])
movej(p[-0.150000,-0.450000,-0.050000,-0.000436,3.141540,0.000262])
movej(p[-0.187500,-0.375000,0.050000,-0.000436,3.141540,0.000262])
movel(p[-0.187500,-0.375000,0.000000,-0.000436,3.141540,0.000262])
movej(p[-0.187500,-0.375000,0.050000,-0.000436,3.141540,0.000262])
movej(p[-0.150000,-0.350000,-0.050000,-0.000436,3.141540,0.000262])
movej(p[-0.050000,-0.450000,0.050000,0.025212,2.355071,-0.066166])
movej(p[-0.050000,-0.550000,0.150000,0.050861,1.568602,-0.132594])
movej(p[-0.050000,-0.650000,0.150000,0.076510,0.782133,-0.199023])
movej(p[-0.050000,-0.750000,0.250000,0.102159,-0.004336,-0.265451])
movej(p[-0.050000,-0.750000,0.350000,0.127807,-0.790805,-0.331879])
movej(p[-0.31148345940338595, -0.7568428597846998, 0.3117245999999999, 0.15345617126337363, -1.577274607399207, -0.3983069805792481])
movej(p[-0.050000,-0.750000,0.350000,0.127807,-0.790805,-0.331879])
movej(p[-0.050000,-0.750000,0.250000,0.102159,-0.004336,-0.265451])
movej(p[-0.050000,-0.650000,0.150000,0.076510,0.782133,-0.199023])
movej(p[-0.050000,-0.550000,0.150000,0.050861,1.568602,-0.132594])
movej(p[-0.050000,-0.450000,0.050000,0.025212,2.355071,-0.066166])
movej(p[-0.150000,-0.350000,-0.050000,-0.000436,3.141540,0.000262])
movej(p[-0.187500,-0.350000,0.050000,-0.000436,3.141540,0.000262])
movel(p[-0.187500,-0.350000,0.000000,-0.000436,3.141540,0.000262])
movej(p[-0.187500,-0.350000,0.050000,-0.000436,3.141540,0.000262])
movej(p[-0.150000,-0.350000,-0.050000,-0.000436,3.141540,0.000262])
movej(p[-0.050000,-0.450000,0.050000,0.008960,2.618197,0.001162])
movej(p[0.050000,-0.550000,0.150000,0.018355,2.094854,0.002062])
movej(p[0.150000,-0.650000,0.150000,0.027751,1.571511,0.002962])
movej(p[0.250000,-0.750000,0.150000,0.037147,1.048168,0.003861])
movej(p[0.350000,-0.750000,0.150000,0.046543,0.524825,0.004761])
movej(p[0.450000,-0.750000,0.250000,0.055939,0.001481,0.005661])
movej(p[0.450000,-0.750000,0.350000,0.065335,-0.521862,0.006561])
movej(p[0.450000,-0.750000,0.450000,0.074731,-1.045205,0.007461])
movej(p[0.24902957650660199, -0.7830140070225229, 0.4360746, 0.08412662854446645, -1.5685480266018956, 0.008360962714810755])
movej(p[0.450000,-0.750000,0.450000,0.074731,-1.045205,0.007461])
movej(p[0.450000,-0.750000,0.350000,0.065335,-0.521862,0.006561])
movej(p[0.450000,-0.750000,0.250000,0.055939,0.001481,0.005661])
movej(p[0.350000,-0.750000,0.150000,0.046543,0.524825,0.004761])
movej(p[0.250000,-0.750000,0.150000,0.037147,1.048168,0.003861])
movej(p[0.150000,-0.650000,0.150000,0.027751,1.571511,0.002962])
movej(p[0.050000,-0.550000,0.150000,0.018355,2.094854,0.002062])
movej(p[-0.050000,-0.450000,0.050000,0.008960,2.618197,0.001162])
movej(p[-0.150000,-0.350000,-0.050000,-0.000436,3.141540,0.000262])
movej(p[-0.187500,-0.325000,0.050000,-0.000436,3.141540,0.000262])
movel(p[-0.187500,-0.325000,0.000000,-0.000436,3.141540,0.000262])
movej(p[-0.187500,-0.325000,0.050000,-0.000436,3.141540,0.000262])
movej(p[-0.150000,-0.350000,-0.050000,-0.000436,3.141540,0.000262])
movej(p[-0.050000,-0.450000,0.050000,0.026036,2.619701,0.018291])
movej(p[0.050000,-0.550000,0.150000,0.052508,2.097861,0.036319])
movej(p[0.150000,-0.650000,0.150000,0.078980,1.576021,0.054348])
movej(p[0.250000,-0.650000,0.150000,0.105452,1.054181,0.072377])
movej(p[0.350000,-0.650000,0.150000,0.131924,0.532342,0.090406])
movej(p[0.450000,-0.650000,0.250000,0.158397,0.010502,0.108435])
movej(p[0.450000,-0.650000,0.350000,0.184869,-0.511338,0.126464])
movej(p[0.450000,-0.650000,0.450000,0.211341,-1.033178,0.144492])
movej(p[0.24018136611871102, -0.7271486052838162, 0.4360746, 0.23781302767108986, -1.5550175042674461, 0.16252115221266492])
movej(p[0.450000,-0.650000,0.450000,0.211341,-1.033178,0.144492])
movej(p[0.450000,-0.650000,0.350000,0.184869,-0.511338,0.126464])
movej(p[0.450000,-0.650000,0.250000,0.158397,0.010502,0.108435])
movej(p[0.350000,-0.650000,0.150000,0.131924,0.532342,0.090406])
movej(p[0.250000,-0.650000,0.150000,0.105452,1.054181,0.072377])
movej(p[0.150000,-0.650000,0.150000,0.078980,1.576021,0.054348])
movej(p[0.050000,-0.550000,0.150000,0.052508,2.097861,0.036319])
movej(p[-0.050000,-0.450000,0.050000,0.026036,2.619701,0.018291])
movej(p[-0.150000,-0.350000,-0.050000,-0.000436,3.141540,0.000262])
movej(p[-0.187500,-0.300000,0.050000,-0.000436,3.141540,0.000262])
movel(p[-0.187500,-0.300000,0.000000,-0.000436,3.141540,0.000262])
movej(p[-0.187500,-0.300000,0.050000,-0.000436,3.141540,0.000262])
movej(p[-0.150000,-0.350000,-0.050000,-0.000436,3.141540,0.000262])
movej(p[-0.050000,-0.450000,0.050000,0.048454,2.557538,0.039779])
movej(p[0.050000,-0.550000,0.150000,0.097344,1.973536,0.079296])
movej(p[0.150000,-0.550000,0.150000,0.146233,1.389534,0.118813])
movej(p[0.250000,-0.550000,0.150000,0.195123,0.805532,0.158330])
movej(p[0.350000,-0.450000,0.250000,0.244013,0.221530,0.197846])
movej(p[0.450000,-0.550000,0.350000,0.292903,-0.362472,0.237363])
movej(p[0.450000,-0.550000,0.450000,0.341793,-0.946474,0.276880])
movej(p[0.22060437239759298, -0.6740828417885201, 0.4360746, 0.3906831961763601, -1.5304758024673106, 0.3163972474559583])
movej(p[0.450000,-0.550000,0.450000,0.341793,-0.946474,0.276880])
movej(p[0.450000,-0.550000,0.350000,0.292903,-0.362472,0.237363])
movej(p[0.350000,-0.450000,0.250000,0.244013,0.221530,0.197846])
movej(p[0.250000,-0.550000,0.150000,0.195123,0.805532,0.158330])
movej(p[0.150000,-0.550000,0.150000,0.146233,1.389534,0.118813])
movej(p[0.050000,-0.550000,0.150000,0.097344,1.973536,0.079296])
movej(p[-0.050000,-0.450000,0.050000,0.048454,2.557538,0.039779])
movej(p[-0.150000,-0.350000,-0.050000,-0.000436,3.141540,0.000262])
movej(p[-0.162500,-0.500000,0.050000,-0.000436,3.141540,0.000262])
movel(p[-0.162500,-0.500000,0.000000,-0.000436,3.141540,0.000262])
movej(p[-0.162500,-0.500000,0.050000,-0.000436,3.141540,0.000262])
movej(p[-0.150000,-0.550000,-0.050000,-0.000436,3.141540,0.000262])
movej(p[-0.050000,-0.450000,0.050000,0.077120,2.479199,0.067326])
movej(p[0.050000,-0.450000,0.150000,0.154676,1.816857,0.134391])
movej(p[0.150000,-0.450000,0.150000,0.232233,1.154515,0.201455])
movej(p[0.250000,-0.350000,0.250000,0.309789,0.492174,0.268520])
movej(p[0.350000,-0.450000,0.350000,0.387345,-0.170168,0.335585])
movej(p[0.350000,-0.450000,0.450000,0.464901,-0.832510,0.402649])
movej(p[0.19105092823304398, -0.625856004068134, 0.4360746, 0.542457784861218, -1.4948514392276053, 0.4697136728140231])
movej(p[0.350000,-0.450000,0.450000,0.464901,-0.832510,0.402649])
movej(p[0.350000,-0.450000,0.350000,0.387345,-0.170168,0.335585])
movej(p[0.250000,-0.350000,0.250000,0.309789,0.492174,0.268520])
movej(p[0.150000,-0.450000,0.150000,0.232233,1.154515,0.201455])
movej(p[0.050000,-0.450000,0.150000,0.154676,1.816857,0.134391])
movej(p[-0.050000,-0.450000,0.050000,0.077120,2.479199,0.067326])
movej(p[-0.150000,-0.550000,-0.050000,-0.000436,3.141540,0.000262])
movej(p[-0.162500,-0.475000,0.050000,-0.000436,3.141540,0.000262])
movel(p[-0.162500,-0.475000,0.000000,-0.000436,3.141540,0.000262])
movej(p[-0.162500,-0.475000,0.050000,-0.000436,3.141540,0.000262])
movej(p[-0.150000,-0.450000,-0.050000,-0.000436,3.141540,0.000262])
movej(p[-0.050000,-0.450000,0.050000,0.098604,2.485889,0.089108])
movej(p[0.050000,-0.450000,0.150000,0.197643,1.830238,0.177954])
movej(p[0.150000,-0.450000,0.150000,0.296683,1.174587,0.266799])
movej(p[0.250000,-0.350000,0.250000,0.395723,0.518936,0.355645])
movej(p[0.350000,-0.450000,0.350000,0.494763,-0.136715,0.444491])
movej(p[0.350000,-0.450000,0.450000,0.593803,-0.792367,0.533337])
movej(p[0.152656755910547, -0.584321422450332, 0.4360746, 0.6928427778531797, -1.448017805052797, 0.622182862444059])
movej(p[0.350000,-0.450000,0.450000,0.593803,-0.792367,0.533337])
movej(p[0.350000,-0.450000,0.350000,0.494763,-0.136715,0.444491])
movej(p[0.250000,-0.350000,0.250000,0.395723,0.518936,0.355645])
movej(p[0.150000,-0.450000,0.150000,0.296683,1.174587,0.266799])
movej(p[0.050000,-0.450000,0.150000,0.197643,1.830238,0.177954])
movej(p[-0.050000,-0.450000,0.050000,0.098604,2.485889,0.089108])
movej(p[-0.150000,-0.450000,-0.050000,-0.000436,3.141540,0.000262])
movej(p[-0.162500,-0.450000,0.050000,-0.000436,3.141540,0.000262])
movel(p[-0.162500,-0.450000,0.000000,-0.000436,3.141540,0.000262])
movej(p[-0.162500,-0.450000,0.050000,-0.000436,3.141540,0.000262])
movej(p[-0.150000,-0.450000,-0.050000,-0.000436,3.141540,0.000262])
movej(p[-0.050000,-0.350000,0.050000,0.139890,2.386318,0.129135])
movej(p[0.050000,-0.350000,0.150000,0.280217,1.631096,0.258007])
movej(p[0.150000,-0.250000,0.250000,0.420543,0.875874,0.386880])
movej(p[0.250000,-0.350000,0.350000,0.560870,0.120652,0.515753])
movej(p[0.250000,-0.350000,0.450000,0.701196,-0.634570,0.644626])
movej(p[0.10689732194075399, -0.551075247613825, 0.4360746, 0.8415230066283791, -1.3897917841617784, 0.7734988483769363])
movej(p[0.250000,-0.350000,0.450000,0.701196,-0.634570,0.644626])
movej(p[0.250000,-0.350000,0.350000,0.560870,0.120652,0.515753])
movej(p[0.150000,-0.250000,0.250000,0.420543,0.875874,0.386880])
movej(p[0.050000,-0.350000,0.150000,0.280217,1.631096,0.258007])
movej(p[-0.050000,-0.350000,0.050000,0.139890,2.386318,0.129135])
movej(p[-0.150000,-0.450000,-0.050000,-0.000436,3.141540,0.000262])
movej(p[-0.162500,-0.425000,0.050000,-0.000436,3.141540,0.000262])
movel(p[-0.162500,-0.425000,0.000000,-0.000436,3.141540,0.000262])
movej(p[-0.162500,-0.425000,0.050000,-0.000436,3.141540,0.000262])
movej(p[-0.150000,-0.450000,-0.050000,-0.000436,3.141540,0.000262])
movej(p[-0.050000,-0.350000,0.050000,0.164329,2.397962,0.154107])
movej(p[0.050000,-0.250000,0.150000,0.329094,1.654383,0.307951])
movej(p[0.150000,-0.250000,0.250000,0.493859,0.910804,0.461796])
movej(p[0.150000,-0.250000,0.350000,0.658625,0.167226,0.615641])
movej(p[0.150000,-0.250000,0.450000,0.823390,-0.576353,0.769485])
movej(p[0.05553113570893912, -0.5273951114129081, 0.4360746, 0.9881549240274631, -1.3199317666296322, 0.9233301388414896])
movej(p[0.150000,-0.250000,0.450000,0.823390,-0.576353,0.769485])
movej(p[0.150000,-0.250000,0.350000,0.658625,0.167226,0.615641])
movej(p[0.150000,-0.250000,0.250000,0.493859,0.910804,0.461796])
movej(p[0.050000,-0.250000,0.150000,0.329094,1.654383,0.307951])
movej(p[-0.050000,-0.350000,0.050000,0.164329,2.397962,0.154107])
movej(p[-0.150000,-0.450000,-0.050000,-0.000436,3.141540,0.000262])
movej(p[-0.162500,-0.400000,0.050000,-0.000436,3.141540,0.000262])
movel(p[-0.162500,-0.400000,0.000000,-0.000436,3.141540,0.000262])
movej(p[-0.162500,-0.400000,0.050000,-0.000436,3.141540,0.000262])
movej(p[-0.150000,-0.450000,-0.050000,-0.000436,3.141540,0.000262])
movej(p[-0.050000,-0.350000,0.050000,0.188363,2.411594,0.178770])
movej(p[0.050000,-0.250000,0.150000,0.377162,1.681648,0.357278])
movej(p[0.050000,-0.250000,0.250000,0.565961,0.951703,0.535787])
movej(p[0.050000,-0.250000,0.350000,0.754760,0.221757,0.714295])
movej(p[0.050000,-0.250000,0.450000,0.943559,-0.508189,0.892803])
movej(p[0.0005321709455021126, -0.5141910282018111, 0.4360746, 1.1323583493034741, -1.2381350957001092, 1.0713115960664952])
movej(p[0.050000,-0.250000,0.450000,0.943559,-0.508189,0.892803])
movej(p[0.050000,-0.250000,0.350000,0.754760,0.221757,0.714295])
movej(p[0.050000,-0.250000,0.250000,0.565961,0.951703,0.535787])
movej(p[0.050000,-0.250000,0.150000,0.377162,1.681648,0.357278])
movej(p[-0.050000,-0.350000,0.050000,0.188363,2.411594,0.178770])
movej(p[-0.150000,-0.450000,-0.050000,-0.000436,3.141540,0.000262])
movej(p[-0.162500,-0.375000,0.050000,-0.000436,3.141540,0.000262])
movel(p[-0.162500,-0.375000,0.000000,-0.000436,3.141540,0.000262])
movej(p[-0.162500,-0.375000,0.050000,-0.000436,3.141540,0.000262])
movej(p[-0.150000,-0.350000,-0.050000,-0.000436,3.141540,0.000262])
movej(p[-0.050000,-0.250000,0.050000,0.211921,2.427278,0.203057])
movej(p[-0.050000,-0.250000,0.150000,0.424278,1.713015,0.405853])
movej(p[-0.050000,-0.250000,0.250000,0.636635,0.998753,0.608648])
movej(p[-0.050000,-0.250000,0.350000,0.848992,0.284490,0.811444])
movej(p[-0.050000,-0.250000,0.450000,1.061350,-0.429772,1.014239])
movej(p[-0.05598599297747539, -0.5119704234934, 0.4360746, 1.2737068432611085, -1.1440350265561072, 1.2170349693365146])
movej(p[-0.050000,-0.250000,0.450000,1.061350,-0.429772,1.014239])
movej(p[-0.050000,-0.250000,0.350000,0.848992,0.284490,0.811444])
movej(p[-0.050000,-0.250000,0.250000,0.636635,0.998753,0.608648])
movej(p[-0.050000,-0.250000,0.150000,0.424278,1.713015,0.405853])
movej(p[-0.050000,-0.250000,0.050000,0.211921,2.427278,0.203057])
movej(p[-0.150000,-0.350000,-0.050000,-0.000436,3.141540,0.000262])
movej(p[-0.162500,-0.350000,0.050000,-0.000436,3.141540,0.000262])
movel(p[-0.162500,-0.350000,0.000000,-0.000436,3.141540,0.000262])
movej(p[-0.162500,-0.350000,0.050000,-0.000436,3.141540,0.000262])
movej(p[-0.150000,-0.350000,-0.050000,-0.000436,3.141540,0.000262])
movej(p[-0.150000,-0.250000,0.050000,0.234922,2.445084,0.226891])
movej(p[-0.150000,-0.250000,0.150000,0.470281,1.748628,0.453520])
movej(p[-0.150000,-0.250000,0.250000,0.705640,1.052171,0.680150])
movej(p[-0.150000,-0.250000,0.350000,0.940999,0.355715,0.906779])
movej(p[-0.150000,-0.250000,0.450000,1.176358,-0.340741,1.133408])
movej(p[-0.11185139471618219, -0.5208186338812901, 0.4360746, 1.4117163032333788, -1.0371973263376022, 1.36003766726415])
movej(p[-0.150000,-0.250000,0.450000,1.176358,-0.340741,1.133408])
movej(p[-0.150000,-0.250000,0.350000,0.940999,0.355715,0.906779])
movej(p[-0.150000,-0.250000,0.250000,0.705640,1.052171,0.680150])
movej(p[-0.150000,-0.250000,0.150000,0.470281,1.748628,0.453520])
movej(p[-0.150000,-0.250000,0.050000,0.234922,2.445084,0.226891])
movej(p[-0.150000,-0.350000,-0.050000,-0.000436,3.141540,0.000262])
movej(p[-0.162500,-0.325000,0.050000,-0.000436,3.141540,0.000262])
movel(p[-0.162500,-0.325000,0.000000,-0.000436,3.141540,0.000262])
movej(p[-0.162500,-0.325000,0.050000,-0.000436,3.141540,0.000262])
movej(p[-0.150000,-0.350000,-0.050000,-0.000436,3.141540,0.000262])
movej(p[-0.250000,-0.350000,0.050000,0.257275,2.465097,0.250183])
movej(p[-0.250000,-0.350000,0.150000,0.514986,1.788655,0.500104])
movej(p[-0.250000,-0.350000,0.250000,0.772697,1.112212,0.750026])
movej(p[-0.250000,-0.350000,0.350000,1.030409,0.435769,0.999947])
movej(p[-0.250000,-0.350000,0.450000,1.288120,-0.240674,1.249868])
movej(p[-0.164917158211479, -0.540395627602408, 0.4360746, 1.545831278296332, -0.9171167315247514, 1.4997892598353764])
movej(p[-0.250000,-0.350000,0.450000,1.288120,-0.240674,1.249868])
movej(p[-0.250000,-0.350000,0.350000,1.030409,0.435769,0.999947])
movej(p[-0.250000,-0.350000,0.250000,0.772697,1.112212,0.750026])
movej(p[-0.250000,-0.350000,0.150000,0.514986,1.788655,0.500104])
movej(p[-0.250000,-0.350000,0.050000,0.257275,2.465097,0.250183])
movej(p[-0.150000,-0.350000,-0.050000,-0.000436,3.141540,0.000262])
movej(p[-0.162500,-0.300000,0.050000,-0.000436,3.141540,0.000262])
movel(p[-0.162500,-0.300000,0.000000,-0.000436,3.141540,0.000262])
movej(p[-0.162500,-0.300000,0.050000,-0.000436,3.141540,0.000262])
movej(p[-0.150000,-0.350000,-0.050000,-0.000436,3.141540,0.000262])
movej(p[-0.250000,-0.350000,0.050000,0.278871,2.487415,0.272831])
movej(p[-0.350000,-0.350000,0.150000,0.558179,1.833289,0.545400])
movej(p[-0.350000,-0.350000,0.250000,0.837486,1.179163,0.817968])
movej(p[-0.350000,-0.350000,0.350000,1.116793,0.525038,1.090537])
movej(p[-0.350000,-0.350000,0.450000,1.396101,-0.129088,1.363106])
movej(p[-0.213143995931864, -0.5699490717669571, 0.4360746, 1.6754083931752664, -0.783213614931705, 1.635675082400845])
movej(p[-0.350000,-0.350000,0.450000,1.396101,-0.129088,1.363106])
movej(p[-0.350000,-0.350000,0.350000,1.116793,0.525038,1.090537])
movej(p[-0.350000,-0.350000,0.250000,0.837486,1.179163,0.817968])
movej(p[-0.350000,-0.350000,0.150000,0.558179,1.833289,0.545400])
movej(p[-0.250000,-0.350000,0.050000,0.278871,2.487415,0.272831])
movej(p[-0.150000,-0.350000,-0.050000,-0.000436,3.141540,0.000262])
movej(p[-0.137500,-0.500000,0.050000,-0.000436,3.141540,0.000262])
movel(p[-0.137500,-0.500000,0.000000,-0.000436,3.141540,0.000262])
movej(p[-0.137500,-0.500000,0.050000,-0.000436,3.141540,0.000262])
movej(p[-0.150000,-0.550000,-0.050000,-0.000436,3.141540,0.000262])
movej(p[-0.250000,-0.450000,0.050000,0.299586,2.512145,0.294714])
movej(p[-0.350000,-0.450000,0.150000,0.599608,1.882750,0.589167])
movej(p[-0.450000,-0.450000,0.250000,0.899630,1.253354,0.883619])
movej(p[-0.450000,-0.450000,0.350000,1.199652,0.623959,1.178071])
movej(p[-0.450000,-0.450000,0.450000,1.499674,-0.005436,1.472524])
movej(p[-0.254678577549666, -0.6083432440894541, 0.4360746, 1.7996961333017134, -0.6348314258616327, 1.7669761677567295])
movej(p[-0.450000,-0.450000,0.450000,1.499674,-0.005436,1.472524])
movej(p[-0.450000,-0.450000,0.350000,1.199652,0.623959,1.178071])
movej(p[-0.450000,-0.450000,0.250000,0.899630,1.253354,0.883619])
movej(p[-0.350000,-0.450000,0.150000,0.599608,1.882750,0.589167])
movej(p[-0.250000,-0.450000,0.050000,0.299586,2.512145,0.294714])
movej(p[-0.150000,-0.550000,-0.050000,-0.000436,3.141540,0.000262])
movej(p[-0.137500,-0.475000,0.050000,-0.000436,3.141540,0.000262])
movel(p[-0.137500,-0.475000,0.000000,-0.000436,3.141540,0.000262])
movej(p[-0.137500,-0.475000,0.050000,-0.000436,3.141540,0.000262])
movej(p[-0.150000,-0.450000,-0.050000,-0.000436,3.141540,0.000262])
movej(p[-0.250000,-0.550000,0.050000,0.319271,2.539411,0.315692])
movej(p[-0.350000,-0.550000,0.150000,0.638979,1.937282,0.631123])
movej(p[-0.450000,-0.450000,0.250000,0.958687,1.335152,0.946553])
movej(p[-0.550000,-0.550000,0.350000,1.278395,0.733023,1.261984])
movej(p[-0.550000,-0.550000,0.450000,1.598102,0.130894,1.577414])
movej(p[-0.287924752386174, -0.654102678059247, 0.43607460000000003, 1.9178100851099054, -0.471235791222488, 1.8928445586305669])
movej(p[-0.550000,-0.550000,0.450000,1.598102,0.130894,1.577414])
movej(p[-0.550000,-0.550000,0.350000,1.278395,0.733023,1.261984])
movej(p[-0.450000,-0.450000,0.250000,0.958687,1.335152,0.946553])
movej(p[-0.350000,-0.550000,0.150000,0.638979,1.937282,0.631123])
movej(p[-0.250000,-0.550000,0.050000,0.319271,2.539411,0.315692])
movej(p[-0.150000,-0.450000,-0.050000,-0.000436,3.141540,0.000262])
movej(p[-0.137500,-0.450000,0.050000,-0.000436,3.141540,0.000262])
movel(p[-0.137500,-0.450000,0.000000,-0.000436,3.141540,0.000262])
movej(p[-0.137500,-0.450000,0.050000,-0.000436,3.141540,0.000262])
movej(p[-0.150000,-0.450000,-0.050000,-0.000436,3.141540,0.000262])
movej(p[-0.250000,-0.550000,0.050000,0.289441,2.651089,0.287692])
movej(p[-0.350000,-0.650000,0.150000,0.579318,2.160638,0.575122])
movej(p[-0.450000,-0.650000,0.150000,0.869195,1.670187,0.862552])
movej(p[-0.550000,-0.650000,0.250000,1.159072,1.179736,1.149982])
movej(p[-0.550000,-0.650000,0.350000,1.448949,0.689285,1.437413])
movej(p[-0.550000,-0.650000,0.450000,1.738826,0.198834,1.724843])
movej(p[-0.31160488858709096, -0.7054688642910619, 0.43607460000000003, 2.028702553529047, -0.2916166582968375, 2.0122728571780106])
movej(p[-0.550000,-0.650000,0.450000,1.738826,0.198834,1.724843])
movej(p[-0.550000,-0.650000,0.350000,1.448949,0.689285,1.437413])
movej(p[-0.550000,-0.650000,0.250000,1.159072,1.179736,1.149982])
movej(p[-0.450000,-0.650000,0.150000,0.869195,1.670187,0.862552])
movej(p[-0.350000,-0.650000,0.150000,0.579318,2.160638,0.575122])
movej(p[-0.250000,-0.550000,0.050000,0.289441,2.651089,0.287692])
movej(p[-0.150000,-0.450000,-0.050000,-0.000436,3.141540,0.000262])
movej(p[-0.137500,-0.425000,0.050000,-0.000436,3.141540,0.000262])
movel(p[-0.137500,-0.425000,0.000000,-0.000436,3.141540,0.000262])
movej(p[-0.137500,-0.425000,0.050000,-0.000436,3.141540,0.000262])
movej(p[-0.150000,-0.450000,-0.050000,-0.000436,3.141540,0.000262])
movej(p[-0.250000,-0.550000,0.050000,-0.313448,2.683525,-0.312849])
movej(p[-0.350000,-0.650000,0.150000,-0.626459,2.225510,-0.625960])
movej(p[-0.450000,-0.750000,0.150000,-0.939470,1.767496,-0.939071])
movej(p[-0.550000,-0.850000,0.250000,-1.252482,1.309481,-1.252182])
movej(p[-0.550000,-0.850000,0.350000,-1.565493,0.851466,-1.565294])
movej(p[-0.550000,-0.850000,0.450000,-1.878504,0.393451,-1.878405])
movej(p[0.21526823357015298, -0.7850050176020061, 0.4360746, -2.1915156886990945, -0.06456413459268513, -2.191515688699095])
movej(p[-0.550000,-0.850000,0.450000,-1.878504,0.393451,-1.878405])
movej(p[-0.550000,-0.850000,0.350000,-1.565493,0.851466,-1.565294])
movej(p[-0.550000,-0.850000,0.250000,-1.252482,1.309481,-1.252182])
movej(p[-0.450000,-0.750000,0.150000,-0.939470,1.767496,-0.939071])
movej(p[-0.350000,-0.650000,0.150000,-0.626459,2.225510,-0.625960])
movej(p[-0.250000,-0.550000,0.050000,-0.313448,2.683525,-0.312849])
movej(p[-0.150000,-0.450000,-0.050000,-0.000436,3.141540,0.000262])
movej(p[-0.137500,-0.400000,0.050000,-0.000436,3.141540,0.000262])
movel(p[-0.137500,-0.400000,0.000000,-0.000436,3.141540,0.000262])
movej(p[-0.137500,-0.400000,0.050000,-0.000436,3.141540,0.000262])
movej(p[-0.150000,-0.450000,-0.050000,-0.000436,3.141540,0.000262])
movej(p[-0.250000,-0.550000,0.050000,-0.298291,2.654519,-0.297693])
movej(p[-0.350000,-0.650000,0.150000,-0.596146,2.167497,-0.595647])
movej(p[-0.450000,-0.750000,0.150000,-0.894001,1.680475,-0.893602])
movej(p[-0.550000,-0.750000,0.250000,-1.191856,1.193454,-1.191557])
movej(p[-0.550000,-0.750000,0.350000,-1.489711,0.706432,-1.489511])
movej(p[-0.550000,-0.750000,0.450000,-1.787565,0.219411,-1.787466])
movej(p[0.207457164815086, -0.7356878704184691, 0.4360746, -2.085420327461898, -0.2676109524876253, -2.085420327461898])
movej(p[-0.550000,-0.750000,0.450000,-1.787565,0.219411,-1.787466])
movej(p[-0.550000,-0.750000,0.350000,-1.489711,0.706432,-1.489511])
movej(p[-0.550000,-0.750000,0.250000,-1.191856,1.193454,-1.191557])
movej(p[-0.450000,-0.750000,0.150000,-0.894001,1.680475,-0.893602])
movej(p[-0.350000,-0.650000,0.150000,-0.596146,2.167497,-0.595647])
movej(p[-0.250000,-0.550000,0.050000,-0.298291,2.654519,-0.297693])
movej(p[-0.150000,-0.450000,-0.050000,-0.000436,3.141540,0.000262])
movej(p[-0.137500,-0.375000,0.050000,-0.000436,3.141540,0.000262])
movel(p[-0.137500,-0.375000,0.000000,-0.000436,3.141540,0.000262])
movej(p[-0.137500,-0.375000,0.050000,-0.000436,3.141540,0.000262])
movej(p[-0.150000,-0.350000,-0.050000,-0.000436,3.141540,0.000262])
movej(p[-0.050000,-0.450000,0.050000,-0.281914,2.628074,-0.281315])
movej(p[-0.050000,-0.550000,0.150000,-0.563391,2.114607,-0.562892])
movej(p[-0.050000,-0.650000,0.150000,-0.844868,1.601141,-0.844469])
movej(p[-0.050000,-0.750000,0.250000,-1.126345,1.087674,-1.126046])
movej(p[-0.050000,-0.850000,0.350000,-1.407822,0.574207,-1.407623])
movej(p[-0.050000,-0.850000,0.450000,-1.689300,0.060741,-1.689200])
movej(p[0.190174885430945, -0.688842202308092, 0.4360746, -1.9707767871030888, -0.4527258734308503, -1.9707767871030888])
movej(p[-0.050000,-0.850000,0.450000,-1.689300,0.060741,-1.689200])
movej(p[-0.050000,-0.850000,0.350000,-1.407822,0.574207,-1.407623])
movej(p[-0.050000,-0.750000,0.250000,-1.126345,1.087674,-1.126046])
movej(p[-0.050000,-0.650000,0.150000,-0.844868,1.601141,-0.844469])
movej(p[-0.050000,-0.550000,0.150000,-0.563391,2.114607,-0.562892])
movej(p[-0.050000,-0.450000,0.050000,-0.281914,2.628074,-0.281315])
movej(p[-0.150000,-0.350000,-0.050000,-0.000436,3.141540,0.000262])
movej(p[-0.137500,-0.350000,0.050000,-0.000436,3.141540,0.000262])
movel(p[-0.137500,-0.350000,0.000000,-0.000436,3.141540,0.000262])
movej(p[-0.137500,-0.350000,0.050000,-0.000436,3.141540,0.000262])
movej(p[-0.150000,-0.350000,-0.050000,-0.000436,3.141540,0.000262])
movej(p[-0.050000,-0.450000,0.050000,-0.264508,2.604050,-0.263910])
movej(p[-0.050000,-0.550000,0.150000,-0.528580,2.066560,-0.528082])
movej(p[-0.050000,-0.650000,0.150000,-0.792652,1.529070,-0.792254])
movej(p[-0.050000,-0.750000,0.250000,-1.056724,0.991580,-1.056425])
movej(p[-0.050000,-0.850000,0.350000,-1.320797,0.454090,-1.320597])
movej(p[-0.050000,-0.850000,0.450000,-1.584869,-0.083400,-1.584769])
movej(p[0.16408554372245, -0.646268266025005, 0.4360746, -1.8489406045997687, -0.6208903713886421, -1.8489406045997687])
movej(p[-0.050000,-0.850000,0.450000,-1.584869,-0.083400,-1.584769])
movej(p[-0.050000,-0.850000,0.350000,-1.320797,0.454090,-1.320597])
movej(p[-0.050000,-0.750000,0.250000,-1.056724,0.991580,-1.056425])
movej(p[-0.050000,-0.650000,0.150000,-0.792652,1.529070,-0.792254])
movej(p[-0.050000,-0.550000,0.150000,-0.528580,2.066560,-0.528082])
movej(p[-0.050000,-0.450000,0.050000,-0.264508,2.604050,-0.263910])
movej(p[-0.150000,-0.350000,-0.050000,-0.000436,3.141540,0.000262])
movej(p[-0.137500,-0.325000,0.050000,-0.000436,3.141540,0.000262])
movel(p[-0.137500,-0.325000,0.000000,-0.000436,3.141540,0.000262])
movej(p[-0.137500,-0.325000,0.050000,-0.000436,3.141540,0.000262])
movej(p[-0.150000,-0.350000,-0.050000,-0.000436,3.141540,0.000262])
movej(p[-0.250000,-0.450000,0.050000,-0.215512,2.652221,-0.214901])
movej(p[-0.350000,-0.550000,0.150000,-0.430588,2.162901,-0.430064])
movej(p[-0.450000,-0.650000,0.150000,-0.645663,1.673582,-0.645227])
movej(p[-0.550000,-0.750000,0.250000,-0.860739,1.184262,-0.860390])
movej(p[-0.550000,-0.850000,0.350000,-1.075815,0.694943,-1.075553])
movej(p[-0.550000,-0.950000,0.450000,-1.290890,0.205623,-1.290716])
movej(p[-0.450000,-1.050000,0.450000,-1.505966,-0.283696,-1.505879])
movej(p[0.13019173846038598, -0.609602154064826, 0.4360746, -1.7210415923360323, -0.7730154944298299, -1.7210415923360323])
movej(p[-0.450000,-1.050000,0.450000,-1.505966,-0.283696,-1.505879])
movej(p[-0.550000,-0.950000,0.450000,-1.290890,0.205623,-1.290716])
movej(p[-0.550000,-0.850000,0.350000,-1.075815,0.694943,-1.075553])
movej(p[-0.550000,-0.750000,0.250000,-0.860739,1.184262,-0.860390])
movej(p[-0.450000,-0.650000,0.150000,-0.645663,1.673582,-0.645227])
movej(p[-0.350000,-0.550000,0.150000,-0.430588,2.162901,-0.430064])
movej(p[-0.250000,-0.450000,0.050000,-0.215512,2.652221,-0.214901])
movej(p[-0.150000,-0.350000,-0.050000,-0.000436,3.141540,0.000262])
movej(p[-0.137500,-0.300000,0.050000,-0.000436,3.141540,0.000262])
movel(p[-0.137500,-0.300000,0.000000,-0.000436,3.141540,0.000262])
movej(p[-0.137500,-0.300000,0.050000,-0.000436,3.141540,0.000262])
movej(p[-0.150000,-0.350000,-0.050000,-0.000436,3.141540,0.000262])
movej(p[-0.250000,-0.450000,0.050000,-0.265035,2.466295,-0.264453])
movej(p[-0.350000,-0.550000,0.150000,-0.529633,1.791050,-0.529168])
movej(p[-0.450000,-0.450000,0.250000,-0.794232,1.115804,-0.793882])
movej(p[-0.550000,-0.550000,0.350000,-1.058830,0.440559,-1.058597])
movej(p[-0.550000,-0.550000,0.450000,-1.323428,-0.234686,-1.323312])
movej(p[0.08979598957311, -0.580252924547595, 0.4360746, -1.5880267736332976, -0.9099316535694142, -1.5880267736332976])
movej(p[-0.550000,-0.550000,0.450000,-1.323428,-0.234686,-1.323312])
movej(p[-0.550000,-0.550000,0.350000,-1.058830,0.440559,-1.058597])
movej(p[-0.450000,-0.450000,0.250000,-0.794232,1.115804,-0.793882])
movej(p[-0.350000,-0.550000,0.150000,-0.529633,1.791050,-0.529168])
movej(p[-0.250000,-0.450000,0.050000,-0.265035,2.466295,-0.264453])
movej(p[-0.150000,-0.350000,-0.050000,-0.000436,3.141540,0.000262])
movej(p[-0.112500,-0.500000,0.050000,-0.000436,3.141540,0.000262])
movel(p[-0.112500,-0.500000,0.000000,-0.000436,3.141540,0.000262])
movej(p[-0.112500,-0.500000,0.050000,-0.000436,3.141540,0.000262])
movej(p[-0.150000,-0.550000,-0.050000,-0.000436,3.141540,0.000262])
movej(p[-0.250000,-0.650000,0.050000,-0.207616,2.545265,-0.207018])
movej(p[-0.350000,-0.750000,0.150000,-0.414796,1.948990,-0.414297])
movej(p[-0.450000,-0.850000,0.150000,-0.621976,1.352715,-0.621577])
movej(p[-0.550000,-0.950000,0.250000,-0.829156,0.756440,-0.828857])
movej(p[-0.450000,-1.050000,0.350000,-1.036336,0.160165,-1.036136])
movej(p[-0.450000,-1.050000,0.450000,-1.243515,-0.436110,-1.243416])
movej(p[0.044450683036162016, -0.5593484519044191, 0.4360746, -1.4506952566453797, -1.0323851258878947, -1.45069525664538])
movej(p[-0.450000,-1.050000,0.450000,-1.243515,-0.436110,-1.243416])
movej(p[-0.450000,-1.050000,0.350000,-1.036336,0.160165,-1.036136])
movej(p[-0.550000,-0.950000,0.250000,-0.829156,0.756440,-0.828857])
movej(p[-0.450000,-0.850000,0.150000,-0.621976,1.352715,-0.621577])
movej(p[-0.350000,-0.750000,0.150000,-0.414796,1.948990,-0.414297])
movej(p[-0.250000,-0.650000,0.050000,-0.207616,2.545265,-0.207018])
movej(p[-0.150000,-0.550000,-0.050000,-0.000436,3.141540,0.000262])
movej(p[-0.112500,-0.475000,0.050000,-0.000436,3.141540,0.000262])
movel(p[-0.112500,-0.475000,0.000000,-0.000436,3.141540,0.000262])
movej(p[-0.112500,-0.475000,0.050000,-0.000436,3.141540,0.000262])
movej(p[-0.150000,-0.450000,-0.050000,-0.000436,3.141540,0.000262])
movej(p[-0.050000,-0.550000,0.050000,-0.164098,2.606218,-0.163487])
movej(p[0.050000,-0.650000,0.150000,-0.327759,2.070896,-0.327235])
movej(p[0.150000,-0.750000,0.150000,-0.491420,1.535573,-0.490984])
movej(p[0.250000,-0.850000,0.150000,-0.655081,1.000251,-0.654732])
movej(p[0.350000,-0.950000,0.250000,-0.818743,0.464929,-0.818481])
movej(p[0.350000,-0.950000,0.350000,-0.982404,-0.070394,-0.982229])
movej(p[0.350000,-0.950000,0.450000,-1.146065,-0.605716,-1.145978])
movej(p[-0.004101586450182486, -0.547692083295614, 0.4360746, -1.3097264999834217, -1.1410385513765418, -1.309726499983422])
movej(p[0.350000,-0.950000,0.450000,-1.146065,-0.605716,-1.145978])
movej(p[0.350000,-0.950000,0.350000,-0.982404,-0.070394,-0.982229])
movej(p[0.350000,-0.950000,0.250000,-0.818743,0.464929,-0.818481])
movej(p[0.250000,-0.850000,0.150000,-0.655081,1.000251,-0.654732])
movej(p[0.150000,-0.750000,0.150000,-0.491420,1.535573,-0.490984])
movej(p[0.050000,-0.650000,0.150000,-0.327759,2.070896,-0.327235])
movej(p[-0.050000,-0.550000,0.050000,-0.164098,2.606218,-0.163487])
movej(p[-0.150000,-0.450000,-0.050000,-0.000436,3.141540,0.000262])
movej(p[-0.112500,-0.450000,0.050000,-0.000436,3.141540,0.000262])
movel(p[-0.112500,-0.450000,0.000000,-0.000436,3.141540,0.000262])
movej(p[-0.112500,-0.450000,0.050000,-0.000436,3.141540,0.000262])
movej(p[-0.150000,-0.450000,-0.050000,-0.000436,3.141540,0.000262])
movej(p[-0.050000,-0.550000,0.050000,-0.194647,2.411871,-0.194066])
movej(p[-0.050000,-0.650000,0.150000,-0.388859,1.682202,-0.388393])
movej(p[-0.050000,-0.750000,0.250000,-0.583070,0.952533,-0.582721])
movej(p[-0.050000,-0.850000,0.350000,-0.777281,0.222864,-0.777048])
movej(p[-0.050000,-0.850000,0.450000,-0.971492,-0.506805,-0.971376])
movej(p[-0.053994982397992185, -0.545731766429848, 0.4360746, -1.16570324355246, -1.236473657637859, -1.1657032435524601])
movej(p[-0.050000,-0.850000,0.450000,-0.971492,-0.506805,-0.971376])
movej(p[-0.050000,-0.850000,0.350000,-0.777281,0.222864,-0.777048])
movej(p[-0.050000,-0.750000,0.250000,-0.583070,0.952533,-0.582721])
movej(p[-0.050000,-0.650000,0.150000,-0.388859,1.682202,-0.388393])
movej(p[-0.050000,-0.550000,0.050000,-0.194647,2.411871,-0.194066])
movej(p[-0.150000,-0.450000,-0.050000,-0.000436,3.141540,0.000262])
movej(p[-0.112500,-0.425000,0.050000,-0.000436,3.141540,0.000262])
movel(p[-0.112500,-0.425000,0.000000,-0.000436,3.141540,0.000262])
movej(p[-0.112500,-0.425000,0.050000,-0.000436,3.141540,0.000262])
movej(p[-0.150000,-0.450000,-0.050000,-0.000436,3.141540,0.000262])
movej(p[-0.050000,-0.550000,0.050000,-0.127773,2.583948,-0.127162])
movej(p[0.050000,-0.650000,0.150000,-0.255110,2.026356,-0.254586])
movej(p[0.150000,-0.750000,0.150000,-0.382447,1.468765,-0.382010])
movej(p[0.250000,-0.850000,0.150000,-0.509783,0.911173,-0.509434])
movej(p[0.350000,-0.950000,0.250000,-0.637120,0.353581,-0.636858])
movej(p[0.450000,-0.850000,0.350000,-0.764457,-0.204011,-0.764282])
movej(p[0.450000,-0.850000,0.450000,-0.891793,-0.761603,-0.891706])
movej(p[-0.10331212958152938, -0.553542835184915, 0.4360746, -1.0191301769634789, -1.3191950804904913, -1.019130176963479])
movej(p[0.450000,-0.850000,0.450000,-0.891793,-0.761603,-0.891706])
movej(p[0.450000,-0.850000,0.350000,-0.764457,-0.204011,-0.764282])
movej(p[0.350000,-0.950000,0.250000,-0.637120,0.353581,-0.636858])
movej(p[0.250000,-0.850000,0.150000,-0.509783,0.911173,-0.509434])
movej(p[0.150000,-0.750000,0.150000,-0.382447,1.468765,-0.382010])
movej(p[0.050000,-0.650000,0.150000,-0.255110,2.026356,-0.254586])
movej(p[-0.050000,-0.550000,0.050000,-0.127773,2.583948,-0.127162])
movej(p[-0.150000,-0.450000,-0.050000,-0.000436,3.141540,0.000262])
movej(p[-0.112500,-0.400000,0.050000,-0.000436,3.141540,0.000262])
movel(p[-0.112500,-0.400000,0.000000,-0.000436,3.141540,0.000262])
movej(p[-0.112500,-0.400000,0.050000,-0.000436,3.141540,0.000262])
movej(p[-0.150000,-0.450000,-0.050000,-0.000436,3.141540,0.000262])
movej(p[-0.050000,-0.550000,0.050000,-0.124724,2.494230,-0.124125])
movej(p[0.050000,-0.650000,0.150000,-0.249011,1.846919,-0.248513])
movej(p[0.150000,-0.750000,0.150000,-0.373299,1.199608,-0.372900])
movej(p[0.050000,-0.850000,0.250000,-0.497587,0.552298,-0.497287])
movej(p[0.150000,-0.950000,0.350000,-0.621874,-0.095013,-0.621675])
movej(p[0.250000,-0.950000,0.450000,-0.746162,-0.742324,-0.746062])
movej(p[-0.150157797691906, -0.570825114569056, 0.4360746, -0.8704492286381109, -1.3896345652604656, -0.8704492286381109])
movej(p[0.250000,-0.950000,0.450000,-0.746162,-0.742324,-0.746062])
movej(p[0.150000,-0.950000,0.350000,-0.621874,-0.095013,-0.621675])
movej(p[0.050000,-0.850000,0.250000,-0.497587,0.552298,-0.497287])
movej(p[0.150000,-0.750000,0.150000,-0.373299,1.199608,-0.372900])
movej(p[0.050000,-0.650000,0.150000,-0.249011,1.846919,-0.248513])
movej(p[-0.050000,-0.550000,0.050000,-0.124724,2.494230,-0.124125])
movej(p[-0.150000,-0.450000,-0.050000,-0.000436,3.141540,0.000262])
movej(p[-0.112500,-0.375000,0.050000,-0.000436,3.141540,0.000262])
movel(p[-0.112500,-0.375000,0.000000,-0.000436,3.141540,0.000262])
movej(p[-0.112500,-0.375000,0.050000,-0.000436,3.141540,0.000262])
movej(p[-0.150000,-0.350000,-0.050000,-0.000436,3.141540,0.000262])
movej(p[-0.050000,-0.450000,0.050000,-0.090388,2.567828,-0.089777])
movej(p[0.050000,-0.550000,0.150000,-0.180340,1.994116,-0.179817])
movej(p[0.150000,-0.550000,0.150000,-0.270292,1.420405,-0.269856])
movej(p[0.250000,-0.550000,0.150000,-0.360244,0.846693,-0.359895])
movej(p[0.350000,-0.450000,0.250000,-0.450196,0.272981,-0.449934])
movej(p[0.450000,-0.550000,0.350000,-0.540148,-0.300731,-0.539974])
movej(p[0.450000,-0.550000,0.450000,-0.630100,-0.874443,-0.630013])
movej(p[-0.19273173397499402, -0.596914456277551, 0.4360746, -0.7200521944817518, -1.4481551048683474, -0.7200521944817518])
movej(p[0.450000,-0.550000,0.450000,-0.630100,-0.874443,-0.630013])
movej(p[0.450000,-0.550000,0.350000,-0.540148,-0.300731,-0.539974])
movej(p[0.350000,-0.450000,0.250000,-0.450196,0.272981,-0.449934])
movej(p[0.250000,-0.550000,0.150000,-0.360244,0.846693,-0.359895])
movej(p[0.150000,-0.550000,0.150000,-0.270292,1.420405,-0.269856])
movej(p[0.050000,-0.550000,0.150000,-0.180340,1.994116,-0.179817])
movej(p[-0.050000,-0.450000,0.050000,-0.090388,2.567828,-0.089777])
movej(p[-0.150000,-0.350000,-0.050000,-0.000436,3.141540,0.000262])
movej(p[-0.112500,-0.350000,0.050000,-0.000436,3.141540,0.000262])
movel(p[-0.112500,-0.350000,0.000000,-0.000436,3.141540,0.000262])
movej(p[-0.112500,-0.350000,0.050000,-0.000436,3.141540,0.000262])
movej(p[-0.150000,-0.350000,-0.050000,-0.000436,3.141540,0.000262])
movej(p[-0.050000,-0.450000,0.050000,-0.071418,2.561966,-0.070807])
movej(p[0.050000,-0.550000,0.150000,-0.142400,1.982392,-0.141876])
movej(p[0.150000,-0.650000,0.150000,-0.213382,1.402817,-0.212946])
movej(p[0.150000,-0.750000,0.150000,-0.284364,0.823243,-0.284015])
movej(p[0.050000,-0.850000,0.250000,-0.355346,0.243668,-0.355084])
movej(p[0.150000,-0.950000,0.350000,-0.426328,-0.335906,-0.426153])
movej(p[0.150000,-0.950000,0.450000,-0.497309,-0.915480,-0.497222])
movej(p[-0.229397845935172, -0.6308082615396151, 0.4360746, -0.56829128896447, -1.4950547455597318, -0.56829128896447])
movej(p[0.150000,-0.950000,0.450000,-0.497309,-0.915480,-0.497222])
movej(p[0.150000,-0.950000,0.350000,-0.426328,-0.335906,-0.426153])
movej(p[0.050000,-0.850000,0.250000,-0.355346,0.243668,-0.355084])
movej(p[0.150000,-0.750000,0.150000,-0.284364,0.823243,-0.284015])
movej(p[0.150000,-0.650000,0.150000,-0.213382,1.402817,-0.212946])
movej(p[0.050000,-0.550000,0.150000,-0.142400,1.982392,-0.141876])
movej(p[-0.050000,-0.450000,0.050000,-0.071418,2.561966,-0.070807])
movej(p[-0.150000,-0.350000,-0.050000,-0.000436,3.141540,0.000262])
movej(p[-0.112500,-0.325000,0.050000,-0.000436,3.141540,0.000262])
movel(p[-0.112500,-0.325000,0.000000,-0.000436,3.141540,0.000262])
movej(p[-0.112500,-0.325000,0.050000,-0.000436,3.141540,0.000262])
movej(p[-0.150000,-0.350000,-0.050000,-0.000436,3.141540,0.000262])
movej(p[-0.250000,-0.450000,0.050000,-0.069612,2.362855,-0.069030])
movej(p[-0.350000,-0.550000,0.150000,-0.138787,1.584170,-0.138321])
movej(p[-0.450000,-0.450000,0.250000,-0.207962,0.805485,-0.207613])
movej(p[-0.550000,-0.550000,0.350000,-0.277138,0.026800,-0.276905])
movej(p[-0.550000,-0.550000,0.450000,-0.346313,-0.751885,-0.346196])
movej(p[-0.258747075452404, -0.671204010426891, 0.4360746, -0.41548809228143163, -1.530569902079518, -0.41548809228143163])
movej(p[-0.550000,-0.550000,0.450000,-0.346313,-0.751885,-0.346196])
movej(p[-0.550000,-0.550000,0.350000,-0.277138,0.026800,-0.276905])
movej(p[-0.450000,-0.450000,0.250000,-0.207962,0.805485,-0.207613])
movej(p[-0.350000,-0.550000,0.150000,-0.138787,1.584170,-0.138321])
movej(p[-0.250000,-0.450000,0.050000,-0.069612,2.362855,-0.069030])
movej(p[-0.150000,-0.350000,-0.050000,-0.000436,3.141540,0.000262])
movej(p[-0.112500,-0.300000,0.050000,-0.000436,3.141540,0.000262])
movel(p[-0.112500,-0.300000,0.000000,-0.000436,3.141540,0.000262])
movej(p[-0.112500,-0.300000,0.050000,-0.000436,3.141540,0.000262])
movej(p[-0.150000,-0.350000,-0.050000,-0.000436,3.141540,0.000262])
movej(p[-0.050000,-0.450000,0.050000,-0.037794,2.470623,-0.037196])
movej(p[-0.050000,-0.550000,0.150000,-0.075152,1.799706,-0.074653])
movej(p[-0.050000,-0.650000,0.150000,-0.112510,1.128790,-0.112111])
movej(p[-0.050000,-0.750000,0.250000,-0.149868,0.457873,-0.149569])
movej(p[-0.050000,-0.850000,0.350000,-0.187226,-0.213044,-0.187026])
movej(p[-0.050000,-0.850000,0.450000,-0.224583,-0.883961,-0.224484])
movej(p[-0.279651548095579, -0.7165493169638391, 0.43607460000000003, -0.26194128189867927, -1.554878093151675, -0.26194128189867927])
movej(p[-0.050000,-0.850000,0.450000,-0.224583,-0.883961,-0.224484])
movej(p[-0.050000,-0.850000,0.350000,-0.187226,-0.213044,-0.187026])
movej(p[-0.050000,-0.750000,0.250000,-0.149868,0.457873,-0.149569])
movej(p[-0.050000,-0.650000,0.150000,-0.112510,1.128790,-0.112111])
movej(p[-0.050000,-0.550000,0.150000,-0.075152,1.799706,-0.074653])
movej(p[-0.050000,-0.450000,0.050000,-0.037794,2.470623,-0.037196])
movej(p[-0.150000,-0.350000,-0.050000,-0.000436,3.141540,0.000262])
